O1234 (5AXIS TEST)
(PROGRAM NAME -  5AXIS TEST   DATE=DD-MM-YY -  10-18-07  TIME=HH:MM -  10:02 )
(MASTERCAM - X)
(MCX FILE  -  D:\MAZAK\INTEGREX\WORM GEAR START_BT .MCX )
(T22 |  1/4 BALL ENDMILL              |  LEN. - 22. |  DIA. - 22.)

G28 U0. Y0. W0.

N1
(T22 |  1/4 BALL ENDMILL              |  LEN. - 22. |  DIA. - 22.)
(PENCIL ON WALL SIDE OF FILLET)
(TOOLPATH GROUP - TOOLPATH GROUP-1)
G122.1
M901
M200
T22 T26 M6 D022
G28 U0. V0. W0.
G97 S2139 M203
M248
G52.5 (MAZATROL COORDINATE SYSTEM CANCEL)
G10 L12 P[#51999] R[#[61000+#3020]/2] (TOOL RADIUS)
G10 L10 P[#51999] R#[60000+#3020] (TOOL LENGTH)
(WORK OFFSET G54 DATA SETTING)
G10 L2 P1 X#50700 (WORK OFFSET G54 X__)
G10 L2 P1 Y0.0 (WORK OFFSET G54 Y0.0)
G10 L2 P1 Z[#9101+[-19.6456]] (WORK OFFSET G54 Z__)
(NOTE* THE [-19.6456 is the "secret" Mazak offset entry)
( which does not appear to be machine specific)
G10 L2 P1 C#9102 (WORK OFFSET G54 C__)
G10 L2 P1 B0.0 (WORK OFFSET G54 B0.0)
G54
M250 M212
G98 G0 B94.9704 C55.2616
M211
G0 X1.9839 Z-.9227 G43.4 H22
Y.2533
M8
X1.8963 Y.2421
G1 X1.3982 Z-.8794 F10.
X1.3973 Y.2425 Z-.8746 I2.3424 J3.2342 K4.4353 A5.5999 B94.9723 C55.0629
X1.3954 Y.2424 Z-.864 C54.5849 B94.9765
X1.3936 Y.2411 Z-.855 C54.1061 B94.9803
X1.3921 Y.2387 Z-.8477 C53.6266 B94.9839
X1.3908 Y.2356 Z-.8423 C53.1465 B94.9871
X1.3897 Y.2319 Z-.8387 C52.6657 B94.9899
X1.3889 Y.2278 Z-.8371 C52.1845 B94.9924
X1.3882 Y.2238 Z-.8376 C51.7028 B94.9945
X1.3878 Y.2199 Z-.84 C51.2207 B94.9963
X1.3875 Y.2165 Z-.8443 C50.7384 B94.9978
X1.3874 Y.2137 Z-.8506 C50.2557 B94.9989
X1.3873 Y.2119 Z-.8586 C49.7729 B94.9996
Y.2112 Z-.8681 C49.2824 B95. F30.
Z-.8802 C48.724
Z-.8958 C48.0012
Y.2111 Z-.9115 C47.2782
Z-.9272 C46.5548
Y.211 Z-.9429 C45.8313
X1.3874 Z-.9586 C45.1074
Z-.9744 C44.3833
Y.2109 Z-.9902 C43.6589
Z-1.006 C42.9341
Y.2108 Z-1.0218 C42.2091
Y.2107 Z-1.0377 C41.4836
Y.2106 Z-1.0535 C40.761
Y.2104 Z-1.0694 C40.0372
Y.2103 Z-1.0853 C39.312
X1.3875 Y.2102 Z-1.1012 C38.5852
Y.21 Z-1.1171 C37.8565
Y.2099 Z-1.1331 C37.1258
Y.2098 Z-1.149 C36.3928
X1.3874 Z-1.1649 C35.6573
Y.2097 Z-1.1809 C34.919
Z-1.1968 C34.1778
Y.2096 Z-1.2127 C33.4336
Z-1.2286 C32.6875
X1.3873 Z-1.2446 C31.9398
Z-1.2604 C31.1906
Z-1.2763 C30.4399
X1.3872 Z-1.2922 C29.688
Z-1.308 C28.9348
Z-1.3238 C28.1806
X1.3871 Y.2095 Z-1.3396 C27.4254
Z-1.3554 C26.6694
Y.2094 Z-1.3712 C25.9126
Y.2093 Z-1.3869 C25.1551
X1.387 Y.2092 Z-1.4027 C24.3971
Y.209 Z-1.4184 C23.6386
Y.2088 Z-1.434 C22.8796
Y.2086 Z-1.4497 C22.1202
Y.2083 Z-1.4653 C21.3605
X1.3886 Y.2001 Z-1.481 C21.0417
X1.3902 Y.1923 Z-1.4938 C20.7423 B94.6983
X1.3918 Y.1844 Z-1.5056 C20.4453 B94.2229
X1.3934 Y.1763 Z-1.5173 C20.1509 B93.7464
X1.3949 Y.1682 Z-1.5289 C19.8593 B93.2687
X1.3945 Y.1558 Z-1.5398 C19.9208 B93.2373
X1.394 Y.142 Z-1.5502 C19.975 B93.2607
X1.3933 Y.1271 Z-1.5597 C20.0019 B93.3375
X1.3928 Y.1129 Z-1.5674 C19.9854 B93.4507
X1.3923 Y.0986 Z-1.5738 C19.9141 B93.5932
X1.3919 Y.0848 Z-1.5786 C19.7769 B93.7491
X1.3916 Y.0718 Z-1.5815 C19.5679 B93.899
Y.0599 Z-1.5824 C19.2877 B94.0216
X1.3917 Y.0494 Z-1.5811 C18.9435 B94.0964
X1.3922 Y.0396 Z-1.5772 C18.5169 B94.1036
X1.393 Y.0314 Z-1.5708 C18.0548 B94.0201
X1.3939 Y.0246 Z-1.5622 C17.5834 B93.8394
X1.3948 Y.0185 Z-1.5507 C17.0977 B93.5402
X1.3957 Y.0133 Z-1.5374 C16.6591 B93.1438
X1.3983 Y-.013 Z-1.5172 C17.1006 B92.6245
X1.4001 Y-.036 Z-1.4995 C17.4873 B92.17
X1.4007 Y-.0393 Z-1.497 C17.5421 B92.1045
X1.4021 Y-.0459 Z-1.481 C17.2135 B91.6509
X1.4033 Y-.0519 Z-1.4636 C16.9565 B91.1206
X1.4043 Y-.0578 Z-1.4438 C16.7803 B90.4943
X1.4051 Y-.0635 Z-1.4236 C16.7159 B89.8373
X1.4056 Y-.0696 Z-1.402 C16.77 B89.1327
X1.4057 Y-.076 Z-1.3797 C16.9578 B88.4097
X1.4053 Y-.0829 Z-1.3571 C17.2854 B87.702
X1.4047 Y-.0895 Z-1.3365 C17.7109 B87.0893
X1.4036 Y-.0962 Z-1.3168 C18.2412 B86.5464
X1.4024 Y-.1027 Z-1.2982 C18.8579 B86.0948
X1.4009 Y-.1089 Z-1.2813 C19.5376 B85.7499
X1.3994 Y-.1144 Z-1.2662 C20.2544 B85.5198
X1.3978 Y-.1193 Z-1.2521 C21.0384 B85.4012
X1.3967 Y-.1223 Z-1.2426 C21.6457 B85.3983
X1.3969 Y-.1175 Z-1.2284 C22.1889 B85.6755
X1.3976 Y-.1128 Z-1.2141 C22.7368 B85.951
X1.3982 Y-.1082 Z-1.1998 C23.2872 B86.2245
X1.3988 Y-.1037 Z-1.1854 C23.8402 B86.4964
Y-.1036 Z-1.1692 C24.6339 B86.4999
X1.3989 Y-.1035 Z-1.153 C25.4278 B86.5015
Y-.1034 Z-1.1368 C26.2218 B86.5014
Z-1.1205 C27.0158 B86.4998
Z-1.1121 C27.4229 B86.4984
Z-1.1037 C27.8295 B86.4967
Z-1.0954 C28.2364 B86.4947
Z-1.087 C28.6429 B86.4923
Z-1.0785 C29.0496 B86.4897
X1.399 Z-1.0701 C29.4559 B86.4868
X1.3989 Z-1.0617 C29.8624 B86.4837
X1.399 Y-.1035 Z-1.0532 C30.2684 B86.4803
X1.3989 Z-1.0448 C30.6746 B86.4769
X1.399 Z-1.0363 C31.0803 B86.4732
X1.3989 Y-.1036 Z-1.0278 C31.4861 B86.4695
X1.399 Z-1.0193 C31.8915 B86.4655
Z-1.0108 C32.2968 B86.4616
Y-.1037 Z-1.0023 C32.7017 B86.4573
Z-.9938 C33.1066 B86.4533
Z-.9853 C33.5111 B86.449
Y-.1038 Z-.9767 C33.9154 B86.445
Z-.9682 C34.3193 B86.4406
Y-.1039 Z-.9596 C34.723 B86.4367
Z-.9511 C35.1262 B86.4324
Z-.9425 C35.5293 B86.4286
Y-.104 Z-.9339 C35.9319 B86.4245
Z-.9253 C36.3342 B86.4211
Z-.9167 C36.7361 B86.4174
Z-.9081 C37.1372 B86.4149
Z-.8995 C37.538 B86.4121
Z-.8823 C38.3376 B86.4086
Y-.1039 Z-.865 C39.1354 B86.4065
Z-.8477 C39.9315 B86.4058
Y-.1038 Z-.8304 C40.7263 B86.4062
X1.3991 Y-.1036 Z-.8131 C41.5201 B86.4075
Y-.1035 Z-.7958 C42.3107 B86.4125
Y-.1033 Z-.7784 C43.1024 B86.4164
Y-.1032 Z-.7611 C43.895 B86.4193
Y-.103 Z-.7437 C44.6886 B86.4214
Y-.1029 Z-.7263 C45.483 B86.4231
Y-.1028 Z-.7088 C46.2783 B86.4246
Y-.1026 Z-.6914 C47.0744 B86.426
Y-.1025 Z-.674 C47.8712 B86.4276
Y-.1024 Z-.6565 C48.6687 B86.4296
Y-.1022 Z-.6391 C49.4691
Z-.6303 C49.8704 B86.4289
Z-.6216 C50.2718 B86.4284
Y-.1021 Z-.6129 C50.6744 B86.427
Z-.6041 C51.0771 B86.4258
Z-.5954 C51.4812 B86.4236
Z-.5867 C51.8853 B86.4216
Z-.5779 C52.2897 B86.4191
Z-.5692 C52.6941 B86.4167
X1.399 Y-.102 Z-.5605 C53.0978 B86.4152
X1.3991 Z-.5518 C53.5015 B86.4138
X1.399 Z-.5431 C53.9049 B86.4132
X1.3991 Y-.1019 Z-.5344 C54.3083 B86.4127
X1.399 Z-.5257 C54.7115 B86.4129
Y-.1018 Z-.517 C55.1148 B86.4132
Y-.1017 Z-.5083 C55.5179 B86.4141
Z-.4997 C55.9212 B86.4151
Y-.1016 Z-.491 C56.3244 B86.4165
Y-.1015 Z-.4823 C56.7279 B86.4181
Y-.1014 Z-.4736 C57.1315 B86.42
Y-.1013 Z-.465 C57.5352 B86.422
Y-.1012 Z-.4563 C57.9393 B86.4242
Y-.1011 Z-.4477 C58.3437 B86.4265
Y-.101 Z-.439 C58.7484 B86.4288
Y-.1009 Z-.4304 C59.1534 B86.4314
Y-.1008 Z-.4217 C59.559 B86.4338
Y-.1007 Z-.4131 C59.9649 B86.4364
Y-.1006 Z-.4044 C60.3716 B86.4387
Y-.1005 Z-.3958 C60.7785 B86.4414
Y-.1004 Z-.3872 C61.1864 B86.4435
Y-.1003 Z-.3786 C61.5945 B86.4459
Y-.1002 Z-.37 C62.0038 B86.4478
Y-.1001 Z-.3614 C62.4134 B86.4499
Y-.1 Z-.3528 C62.8243 B86.4513
Y-.0999 Z-.3442 C63.2355 B86.4531
X1.3989 Y-.0998 Z-.3356 C63.6481 B86.4539
X1.399 Z-.327 C64.061 B86.4552
X1.3989 Y-.0997 Z-.3184 C64.4756 B86.4553
Y-.0996 Z-.3098 C64.8906 B86.4559
Z-.3013 C65.3073 B86.4553
Y-.0995 Z-.2927 C65.7244 B86.4551
Z-.2842 C66.1434 B86.4536
Z-.2756 C66.5628 B86.4525
X1.3988 Y-.0994 Z-.2671 C66.9843 B86.4499
Z-.2585 C67.4063 B86.4479
Z-.25 C67.8305 B86.4441
Y-.0995 Z-.2415 C68.2552 B86.441
X1.3987 Z-.233 C68.6821 B86.436
X1.3988 Z-.2245 C69.1097 B86.4318
X1.3987 Y-.0996 Z-.216 C69.5392 B86.4261
Z-.2075 C69.9693 B86.4211
X1.3986 Y-.0997 Z-.199 C70.4011 B86.4149
Z-.1906 C70.8335 B86.4093
Y-.0998 Z-.1821 C71.2675 B86.4028
Y-.0999 Z-.1737 C71.7021 B86.397
X1.3985 Y-.1 Z-.1653 C72.1379 B86.3903
Y-.1001 Z-.1569 C72.5745 B86.3844
X1.3984 Z-.1485 C73.0122 B86.3778
Y-.1002 Z-.1402 C73.4506 B86.372
Y-.1003 Z-.1318 C73.8898 B86.3656
Y-.1004 Z-.1235 C74.3298 B86.3601
X1.3983 Y-.1005 Z-.1152 C74.7705 B86.3542
Z-.1069 C75.212 B86.3491
X1.3982 Y-.1006 Z-.0986 C75.6539 B86.3438
Z-.0903 C76.0967 B86.3395
Y-.1007 Z-.0821 C76.5397 B86.335
Z-.0738 C76.9835 B86.3316
X1.3981 Z-.0656 C77.4274 B86.3282
Y-.1008 Z-.0575 C77.8721 B86.3258
Y-.1007 Z-.0493 C78.3167 B86.3236
Z-.0411 C78.7621 B86.3225
X1.398 Z-.033 C79.2072 B86.3217
Y-.1006 Z-.0249 C79.6532 B86.3221
Y-.1005 Z-.0171 C80.0862 B86.323
Z-.0092 C80.5202 B86.3249
X1.3979 Y-.1003 Z-.0014 C80.9533 B86.3275
Y-.1002 Z.0064 C81.3874 B86.3311
Y-.1 Z.0141 C81.8206 B86.3356
Y-.0999 Z.0219 C82.2547 B86.3412
Y-.0996 Z.0296 C82.6876 B86.3478
Y-.0994 Z.0373 C83.1215 B86.3556
X1.399 Y-.0881 Z.049 C83.3932 B86.9365
X1.4001 Y-.0765 Z.0606 C83.6556 B87.5178
X1.4009 Y-.0646 Z.0722 C83.908 B88.0993
X1.4016 Y-.0525 Z.0837 C84.1499 B88.6811
X1.4012 Y-.039 Z.0938 C84.0844 B88.6772
X1.4005 Y-.0244 Z.1032 C84.0373 B88.6189
X1.3995 Y-.0091 Z.1116 C84.0281 B88.511
X1.3985 Y.0052 Z.1181 C84.0703 B88.3752
X1.3976 Y.0193 Z.1232 C84.1748 B88.2185
X1.3969 Y.0327 Z.1265 C84.3506 B88.059
X1.3964 Y.0451 Z.1278 C84.6008 B87.9178
X1.3963 Y.0561 Z.127 C84.9216 B87.8166
X1.3966 Y.0657 Z.1239 C85.3022 B87.7758
X1.3974 Y.0745 Z.1181 C85.7599 B87.8176
X1.3985 Y.0818 Z.1099 C86.2414 B87.9605
X1.4 Y.0881 Z.0985 C86.7518 B88.2293
X1.4013 Y.0934 Z.0851 C87.2239 B88.6103
X1.4022 Y.0977 Z.0711 C87.6057 B89.0522
X1.4017 Y.1237 Z.0498 C87.0927 B89.4971
X1.4007 Y.1497 Z.0284 C86.5786 B89.9432
X1.4018 Y.1554 Z.011 C86.8826 B90.4649
X1.4025 Y.1608 Z-.0077 C87.0987 B91.0597
X1.4029 Y.1664 Z-.0286 C87.2162 B91.7462
X1.4028 Y.1723 Z-.0512 C87.2047 B92.5029
X1.402 Y.1784 Z-.0733 C87.0561 B93.244
X1.4007 Y.185 Z-.0959 C86.7625 B93.9849
X1.3989 Y.1916 Z-.1168 C86.3586 B94.6405
X1.3977 Y.1953 Z-.1278 C86.0912 B94.9699
X1.3975 Y.1958 Z-.1292 C86.0503 B95.
X1.395 Y.2033 Z-.1466 C85.4132
X1.3922 Y.2106 Z-.1632 C84.6746
X1.3893 Y.217 Z-.1776 C83.9263
X1.3864 Y.2226 Z-.1908 C83.147
X1.3836 Y.2271 Z-.2028 C82.3649
X1.3809 Y.2305 Z-.2133 C81.6052
X1.3817 Y.2258 Z-.227 C81.0494
X1.3829 Y.2208 Z-.2391 C80.6033
X1.384 Y.216 Z-.2513 C80.1513
X1.3851 Y.2114 Z-.2636 C79.6936
X1.3862 Y.2066 Z-.2769 C79.1987
Y.2067 Z-.2902 C78.4295
X1.3863 Y.2069 Z-.3036 C77.6593
Y.2071 Z-.3171 C76.8884
X1.3864 Y.2074 Z-.3306 C76.1171
Y.2077 Z-.3443 C75.3456
Y.2081 Z-.358 C74.5743
Y.2084 Z-.3718 C73.8033
Y.2088 Z-.3857 C73.0331
Y.2093 Z-.3997 C72.2639
Y.2097 Z-.4138 C71.496
Y.2101 Z-.4279 C70.7297
Y.2105 Z-.4421 C69.9653
Y.2109 Z-.4564 C69.2031
Y.2112 Z-.4708 C68.4433
Y.2116 Z-.4852 C67.6863
Y.2119 Z-.4997 C66.9324
Y.2121 Z-.5143 C66.1817
Y.2123 Z-.529 C65.4345
Y.2125 Z-.5437 C64.6905
X1.3865 Y.2126 Z-.5585 C63.9496
Y.2127 Z-.5733 C63.2116
Y.2128 Z-.5883 C62.4762
X1.3866 Z-.6032 C61.7432
Z-.6182 C61.0125
Y.2127 Z-.6333 C60.2838
X1.3867 Z-.6485 C59.5569
Y.2126 Z-.6636 C58.8315
X1.3868 Y.2125 Z-.6789 C58.1076
Y.2124 Z-.6941 C57.3848
X1.3869 Y.2123 Z-.7094 C56.6626
Y.2122 Z-.7248 C55.9407
X1.387 Y.2121 Z-.7402 C55.2191
Y.212 Z-.7556 C54.4973
X1.3871 Y.2119 Z-.7711 C53.7751
Y.2118 Z-.7866 C53.0524
Y.2116 Z-.8021 C52.3332
X1.3872 Y.2115 Z-.8177 C51.6128
Y.2114 Z-.8333 C50.8913
Y.2113 Z-.8489 C50.1687
X1.3873 Z-.8645 C49.4465
Y.2112 Z-.8681 C49.2824
X1.3872 Y.2123 Z-.8794 C48.7918 B94.9998
Y.2144 Z-.8919 C48.3089 B94.9992
X1.3869 Y.2182 Z-.9055 C47.8262 B94.9982
X1.3865 Y.2238 Z-.92 C47.3437 B94.9969
X1.3857 Y.2312 Z-.9352 C46.8615 B94.9953
X1.3845 Y.2406 Z-.9508 C46.3797 B94.9933
X1.383 Y.2519 Z-.9666 C45.8983 B94.9909
X1.3809 Y.2651 Z-.9823 C45.4173 B94.9882
X1.3783 Y.2802 Z-.9977 C44.937 B94.9852
X1.3752 Y.2972 Z-1.0126 C44.4572 B94.9818
X1.3714 Y.3159 Z-1.0266 C43.9781 B94.978
X1.367 Y.3362 Z-1.0396 C43.4998 B94.974
X1.365 Y.345 Z-1.0446 C43.301 B94.9722
X1.8631 Z-1.0879
X1.8274 Y.2458 Z-.9122 C55.4277 B94.9688
X1.3293 Z-.8689 F10.
X1.3284 Y.2459 Z-.8642 C55.2236 B94.9708
X1.3263 Y.2453 Z-.8539 C54.7325 B94.9752
X1.3244 Y.2434 Z-.8452 C54.2405 B94.9793
X1.3228 Y.2406 Z-.8383 C53.7478 B94.983
X1.3214 Y.2371 Z-.8332 C53.2544 B94.9864
X1.3202 Y.233 Z-.83 C52.7603 B94.9894
X1.3193 Y.2287 Z-.8289 C52.2657 B94.992
X1.3186 Y.2243 Z-.8297 C51.7705 B94.9943
X1.3181 Y.2202 Z-.8325 C51.275 B94.9961
X1.3178 Y.2167 Z-.8372 C50.7791 B94.9977
X1.3177 Y.2138 Z-.8438 C50.283 B94.9988
X1.3176 Y.2119 Z-.8522 C49.7867 B94.9996
X1.3175 Y.2112 Z-.862 C49.2824 B95. F30.
Z-.8741 C48.724
X1.3176 Z-.8897 C48.0012
Y.2111 Z-.9054 C47.2782
Z-.9211 C46.5548
Y.211 Z-.9368 C45.8313
Z-.9525 C45.1074
Z-.9683 C44.3833
Y.2109 Z-.9841 C43.6589
Z-.9999 C42.9341
X1.3177 Y.2108 Z-1.0157 C42.2091
Y.2107 Z-1.0316 C41.4836
Y.2106 Z-1.0474 C40.761
Y.2104 Z-1.0633 C40.0372
Y.2103 Z-1.0792 C39.312
Y.2102 Z-1.0951 C38.5852
Y.21 Z-1.111 C37.8565
Y.2099 Z-1.127 C37.1258
Y.2098 Z-1.1429 C36.3928
Z-1.1588 C35.6573
Y.2097 Z-1.1748 C34.919
Z-1.1907 C34.1778
X1.3176 Y.2096 Z-1.2066 C33.4336
Z-1.2225 C32.6875
Z-1.2385 C31.9398
Z-1.2543 C31.1906
X1.3175 Z-1.2702 C30.4399
Z-1.2861 C29.688
Z-1.3019 C28.9348
X1.3174 Z-1.3177 C28.1806
Y.2095 Z-1.3335 C27.4254
Z-1.3493 C26.6694
Y.2094 Z-1.3651 C25.9126
X1.3173 Y.2093 Z-1.3808 C25.1551
Y.2092 Z-1.3966 C24.3971
Y.209 Z-1.4123 C23.6386
Y.2088 Z-1.4279 C22.8796
Y.2086 Z-1.4436 C22.1202
Y.2083 Z-1.4592 C21.3605
X1.3188 Y.2001 Z-1.4749 C21.0417
X1.3204 Y.1923 Z-1.4881 C20.7423 B94.6983
X1.322 Y.1844 Z-1.5004 C20.4453 B94.2229
X1.3235 Y.1763 Z-1.5127 C20.1509 B93.7464
X1.325 Y.1682 Z-1.5249 C19.8593 B93.2687
X1.3246 Y.1558 Z-1.5359 C19.9208 B93.2373
X1.3241 Y.142 Z-1.5462 C19.975 B93.2607
X1.3235 Y.1271 Z-1.5556 C20.0019 B93.3375
X1.3229 Y.1129 Z-1.5632 C19.9854 B93.4507
X1.3224 Y.0986 Z-1.5694 C19.9141 B93.5932
X1.322 Y.0848 Z-1.574 C19.7769 B93.7491
X1.3218 Y.0718 Z-1.5768 C19.5679 B93.899
X1.3217 Y.0599 Z-1.5775 C19.2877 B94.0216
X1.3219 Y.0494 Z-1.5761 C18.9435 B94.0964
X1.3224 Y.0396 Z-1.5722 C18.5169 B94.1036
X1.3231 Y.0314 Z-1.5659 C18.0548 B94.0201
X1.324 Y.0246 Z-1.5575 C17.5834 B93.8394
X1.325 Y.0185 Z-1.5464 C17.0977 B93.5402
X1.3258 Y.0133 Z-1.5336 C16.6591 B93.1438
X1.3283 Y-.013 Z-1.514 C17.1006 B92.6245
X1.3302 Y-.036 Z-1.4969 C17.4873 B92.17
X1.3308 Y-.0393 Z-1.4944 C17.5421 B92.1045
X1.3321 Y-.0459 Z-1.479 C17.2135 B91.6509
X1.3333 Y-.0519 Z-1.4622 C16.9565 B91.1206
X1.3343 Y-.0578 Z-1.4432 C16.7803 B90.4943
X1.3351 Y-.0635 Z-1.4238 C16.7159 B89.8373
X1.3356 Y-.0696 Z-1.4031 C16.77 B89.1327
X1.3357 Y-.076 Z-1.3816 C16.9578 B88.4097
X1.3354 Y-.0829 Z-1.3599 C17.2854 B87.702
X1.3347 Y-.0895 Z-1.3401 C17.7109 B87.0893
X1.3338 Y-.0962 Z-1.321 C18.2412 B86.5464
X1.3325 Y-.1027 Z-1.303 C18.8579 B86.0948
X1.3311 Y-.1089 Z-1.2865 C19.5376 B85.7499
X1.3296 Y-.1144 Z-1.2716 C20.2544 B85.5198
X1.3281 Y-.1193 Z-1.2577 C21.0384 B85.4012
X1.3269 Y-.1223 Z-1.2482 C21.6457 B85.3983
X1.3271 Y-.1175 Z-1.2337 C22.1889 B85.6755
X1.3277 Y-.1128 Z-1.219 C22.7368 B85.9509
X1.3283 Y-.1082 Z-1.2044 C23.2872 B86.2245
X1.3289 Y-.1037 Z-1.1896 C23.8402 B86.4964
X1.329 Y-.1036 Z-1.1735 C24.6339 B86.4999
Y-.1035 Z-1.1573 C25.4278 B86.5015
Y-.1034 Z-1.1411 C26.2218 B86.5014
Z-1.1248 C27.0158 B86.4998
Z-1.1164 C27.4229 B86.4984
X1.3291 Z-1.108 C27.8295 B86.4967
X1.329 Z-1.0996 C28.2364 B86.4947
X1.3291 Z-1.0912 C28.6429 B86.4923
X1.329 Z-1.0828 C29.0496 B86.4897
X1.3291 Z-1.0744 C29.4559 B86.4868
Z-1.066 C29.8624 B86.4837
Y-.1035 Z-1.0575 C30.2684 B86.4804
Z-1.0491 C30.6746 B86.4769
Z-1.0406 C31.0803 B86.4732
Y-.1036 Z-1.0321 C31.4861 B86.4695
Z-1.0237 C31.8915 B86.4655
Z-1.0152 C32.2968 B86.4616
Y-.1037 Z-1.0067 C32.7017 B86.4573
Z-.9981 C33.1066 B86.4533
Z-.9896 C33.5111 B86.449
Y-.1038 Z-.9811 C33.9154 B86.445
Z-.9725 C34.3193 B86.4406
Y-.1039 Z-.964 C34.723 B86.4367
Z-.9554 C35.1262 B86.4324
Z-.9469 C35.5293 B86.4286
Y-.104 Z-.9383 C35.9319 B86.4245
Z-.9297 C36.3342 B86.4211
Z-.9211 C36.7361 B86.4174
Z-.9125 C37.1372 B86.4149
Z-.9039 C37.538 B86.4121
X1.3292 Z-.8867 C38.3376 B86.4086
Y-.1039 Z-.8694 C39.1354 B86.4065
Z-.8521 C39.9315 B86.4058
Y-.1038 Z-.8348 C40.7263 B86.4062
Y-.1036 Z-.8175 C41.5201 B86.4075
Y-.1035 Z-.8002 C42.3107 B86.4125
Y-.1033 Z-.7828 C43.1024 B86.4164
Y-.1032 Z-.7654 C43.895 B86.4193
Y-.103 Z-.748 C44.6886 B86.4214
X1.3293 Y-.1029 Z-.7306 C45.483 B86.4231
Y-.1028 Z-.7132 C46.2783 B86.4246
Y-.1026 Z-.6958 C47.0744 B86.426
Y-.1025 Z-.6783 C47.8712 B86.4276
Y-.1024 Z-.6609 C48.6687 B86.4296
Y-.1022 Z-.6434 C49.4691
X1.3292 Z-.6347 C49.8704 B86.4289
X1.3293 Z-.626 C50.2718 B86.4284
X1.3292 Y-.1021 Z-.6172 C50.6744 B86.427
Z-.6085 C51.0771 B86.4258
Z-.5998 C51.4812 B86.4236
Z-.591 C51.8854 B86.4216
Z-.5823 C52.2897 B86.4191
Z-.5736 C52.6941 B86.4167
Y-.102 Z-.5649 C53.0978 B86.4152
Z-.5562 C53.5015 B86.4138
Z-.5475 C53.9049 B86.4132
Y-.1019 Z-.5388 C54.3083 B86.4127
Z-.5301 C54.7115 B86.4129
Y-.1018 Z-.5214 C55.1148 B86.4132
Y-.1017 Z-.5127 C55.5179 B86.4141
Z-.504 C55.9212 B86.4151
Y-.1016 Z-.4954 C56.3244 B86.4165
Y-.1015 Z-.4867 C56.7279 B86.4181
X1.3291 Y-.1014 Z-.478 C57.1315 B86.42
X1.3292 Y-.1013 Z-.4693 C57.5352 B86.422
X1.3291 Y-.1012 Z-.4607 C57.9393 B86.4242
X1.3292 Y-.1011 Z-.452 C58.3437 B86.4265
X1.3291 Y-.101 Z-.4434 C58.7484 B86.4288
X1.3292 Y-.1009 Z-.4347 C59.1534 B86.4314
X1.3291 Y-.1008 Z-.4261 C59.559 B86.4338
X1.3292 Y-.1007 Z-.4174 C59.9649 B86.4364
X1.3291 Y-.1006 Z-.4088 C60.3716 B86.4387
Y-.1005 Z-.4002 C60.7785 B86.4414
Y-.1004 Z-.3915 C61.1864 B86.4435
Y-.1003 Z-.3829 C61.5946 B86.4459
Y-.1002 Z-.3743 C62.0038 B86.4478
Y-.1001 Z-.3657 C62.4134 B86.4499
Y-.1 Z-.3571 C62.8243 B86.4513
Y-.0999 Z-.3485 C63.2355 B86.4531
Y-.0998 Z-.3399 C63.6481 B86.4539
Z-.3313 C64.061 B86.4552
Y-.0997 Z-.3227 C64.4756 B86.4553
Y-.0996 Z-.3142 C64.8906 B86.4559
X1.329 Z-.3056 C65.3072 B86.4553
Y-.0995 Z-.297 C65.7244 B86.4551
Z-.2885 C66.1434 B86.4536
Z-.28 C66.5628 B86.4525
Y-.0994 Z-.2714 C66.9843 B86.4499
Z-.2629 C67.4063 B86.4479
X1.3289 Z-.2544 C67.8305 B86.4441
Y-.0995 Z-.2458 C68.2552 B86.441
Z-.2373 C68.6821 B86.436
Z-.2288 C69.1097 B86.4317
X1.3288 Y-.0996 Z-.2204 C69.5392 B86.4261
Z-.2119 C69.9693 B86.4211
Y-.0997 Z-.2034 C70.4011 B86.4149
Z-.195 C70.8335 B86.4093
X1.3287 Y-.0998 Z-.1865 C71.2675 B86.4028
Y-.0999 Z-.1781 C71.7021 B86.397
Y-.1 Z-.1697 C72.1379 B86.3903
X1.3286 Y-.1001 Z-.1613 C72.5745 B86.3844
Z-.153 C73.0122 B86.3778
Y-.1002 Z-.1446 C73.4506 B86.372
X1.3285 Y-.1003 Z-.1362 C73.8898 B86.3656
Y-.1004 Z-.1279 C74.3298 B86.3601
Y-.1005 Z-.1196 C74.7705 B86.3542
Z-.1113 C75.212 B86.3491
X1.3284 Y-.1006 Z-.103 C75.6539 B86.3438
Z-.0948 C76.0967 B86.3395
X1.3283 Y-.1007 Z-.0865 C76.5397 B86.335
Z-.0783 C76.9835 B86.3316
Z-.0701 C77.4274 B86.3282
Y-.1008 Z-.0619 C77.8721 B86.3258
X1.3282 Y-.1007 Z-.0538 C78.3167 B86.3236
Z-.0456 C78.7621 B86.3225
X1.3281 Z-.0375 C79.2072 B86.3217
X1.3282 Y-.1006 Z-.0294 C79.6532 B86.3221
X1.3281 Y-.1005 Z-.0216 C80.0862 B86.323
Z-.0137 C80.5202 B86.3249
Y-.1003 Z-.0059 C80.9533 B86.3275
Y-.1002 Z.0019 C81.3874 B86.3311
X1.328 Y-.1 Z.0096 C81.8206 B86.3356
Y-.0999 Z.0174 C82.2547 B86.3412
Y-.0996 Z.0251 C82.6876 B86.3478
Y-.0994 Z.0328 C83.1215 B86.3556
X1.3291 Y-.0881 Z.0453 C83.3932 B86.9365
X1.3301 Y-.0765 Z.0576 C83.6556 B87.5178
X1.331 Y-.0646 Z.0699 C83.908 B88.0993
X1.3317 Y-.0525 Z.0821 C84.1499 B88.6811
X1.3312 Y-.039 Z.0922 C84.0844 B88.6772
X1.3305 Y-.0244 Z.1015 C84.0373 B88.6189
X1.3295 Y-.0091 Z.1098 C84.0281 B88.511
X1.3285 Y.0052 Z.1161 C84.0703 B88.3752
X1.3276 Y.0193 Z.121 C84.1748 B88.2185
X1.3269 Y.0327 Z.1241 C84.3506 B88.059
X1.3265 Y.0451 Z.1253 C84.6008 B87.9178
X1.3264 Y.0561 Z.1243 C84.9216 B87.8166
X1.3267 Y.0657 Z.1212 C85.3022 B87.7758
X1.3275 Y.0745 Z.1155 C85.7599 B87.8176
X1.3286 Y.0818 Z.1074 C86.2414 B87.9605
X1.33 Y.0881 Z.0964 C86.7518 B88.2293
X1.3313 Y.0934 Z.0834 C87.2239 B88.6103
X1.3323 Y.0977 Z.0699 C87.6057 B89.0522
X1.3317 Y.1237 Z.0491 C87.0927 B89.4971
X1.3307 Y.1497 Z.0283 C86.5786 B89.9432
X1.3318 Y.1554 Z.0116 C86.8826 B90.4649
X1.3325 Y.1608 Z-.0064 C87.0987 B91.0597
X1.3329 Y.1664 Z-.0264 C87.2162 B91.7462
X1.3328 Y.1723 Z-.0481 C87.2047 B92.5029
X1.3321 Y.1784 Z-.0693 C87.0561 B93.244
X1.3308 Y.185 Z-.091 C86.7625 B93.9849
X1.3291 Y.1916 Z-.1111 C86.3586 B94.6405
X1.3279 Y.1953 Z-.1217 C86.0912 B94.9699
X1.3278 Y.1958 Z-.1231 C86.0503 B95.
X1.3253 Y.2033 Z-.1405 C85.4132
X1.3225 Y.2106 Z-.1571 C84.6746
X1.3196 Y.217 Z-.1715 C83.9263
X1.3167 Y.2226 Z-.1847 C83.147
X1.3138 Y.2271 Z-.1967 C82.3649
X1.3112 Y.2305 Z-.2072 C81.6052
X1.312 Y.2258 Z-.2209 C81.0494
X1.3132 Y.2208 Z-.233 C80.6033
X1.3143 Y.216 Z-.2452 C80.1513
X1.3154 Y.2114 Z-.2575 C79.6936
X1.3164 Y.2066 Z-.2708 C79.1987
X1.3165 Y.2067 Z-.2841 C78.4295
X1.3166 Y.2069 Z-.2975 C77.6594
Y.2071 Z-.311 C76.8884
Y.2074 Z-.3245 C76.1171
X1.3167 Y.2077 Z-.3382 C75.3456
Y.2081 Z-.3519 C74.5743
Y.2084 Z-.3657 C73.8033
Y.2088 Z-.3796 C73.0331
Y.2093 Z-.3936 C72.2639
Y.2097 Z-.4077 C71.496
Y.2101 Z-.4218 C70.7297
Y.2105 Z-.436 C69.9653
Y.2109 Z-.4503 C69.2031
Y.2112 Z-.4647 C68.4433
Y.2116 Z-.4791 C67.6863
Y.2119 Z-.4936 C66.9324
Y.2121 Z-.5082 C66.1817
Y.2123 Z-.5229 C65.4345
Y.2125 Z-.5376 C64.6905
Y.2126 Z-.5524 C63.9496
X1.3168 Y.2127 Z-.5672 C63.2116
Y.2128 Z-.5822 C62.4762
Z-.5971 C61.7432
X1.3169 Z-.6121 C61.0125
Y.2127 Z-.6272 C60.2838
X1.317 Z-.6424 C59.5569
Y.2126 Z-.6575 C58.8315
X1.3171 Y.2125 Z-.6728 C58.1076
Y.2124 Z-.688 C57.3848
X1.3172 Y.2123 Z-.7033 C56.6625
Y.2122 Z-.7187 C55.9407
Y.2121 Z-.7341 C55.2191
X1.3173 Y.212 Z-.7495 C54.4973
Y.2119 Z-.765 C53.7751
X1.3174 Y.2118 Z-.7805 C53.0524
Y.2116 Z-.796 C52.3332
Y.2115 Z-.8116 C51.6128
X1.3175 Y.2114 Z-.8272 C50.8913
Y.2113 Z-.8428 C50.1687
Z-.8584 C49.4465
Y.2112 Z-.862 C49.2824
Y.2123 Z-.8736 C48.778 B94.9997
X1.3174 Y.2145 Z-.8863 C48.2817 B94.9991
X1.3172 Y.2184 Z-.9001 C47.7854 B94.9981
X1.3167 Y.2241 Z-.9148 C47.2895 B94.9967
X1.3159 Y.2316 Z-.9301 C46.7938 B94.995
X1.3148 Y.2411 Z-.9457 C46.2985 B94.9929
X1.3132 Y.2525 Z-.9615 C45.8037 B94.9904
X1.3111 Y.2659 Z-.9772 C45.3094 B94.9876
X1.3084 Y.2811 Z-.9925 C44.8157 B94.9843
X1.3052 Y.2982 Z-1.0072 C44.3227 B94.9808
X1.3013 Y.3169 Z-1.021 C43.8304 B94.9768
X1.2968 Y.3372 Z-1.0338 C43.339 B94.9725
X1.2947 Y.3461 Z-1.0387 C43.1347 B94.9706
X1.7928 Z-1.082
X1.7586 Y.2496 Z-.9013 C55.5989 B94.9671
X1.2605 Z-.8581 F10.
X1.2595 Y.2495 Z-.8535 C55.3892 B94.9692
X1.2573 Y.2483 Z-.8435 C54.8846 B94.9739
X1.2553 Y.2459 Z-.8352 C54.379 B94.9782
X1.2535 Y.2426 Z-.8287 C53.8727 B94.9821
X1.2519 Y.2386 Z-.824 C53.3655 B94.9856
X1.2507 Y.2342 Z-.8212 C52.8577 B94.9888
X1.2497 Y.2295 Z-.8205 C52.3493 B94.9916
X1.249 Y.2249 Z-.8217 C51.8403 B94.994
X1.2484 Y.2206 Z-.8249 C51.3309 B94.996
X1.2481 Y.2169 Z-.8301 C50.8211 B94.9976
X1.2479 Y.2139 Z-.837 C50.3111 B94.9988
Y.212 Z-.8457 C49.8008 B94.9996
X1.2478 Y.2112 Z-.8559 C49.2824 B95. F30.
Z-.868 C48.724
Z-.8836 C48.0012
X1.2479 Y.2111 Z-.8993 C47.2782
Z-.915 C46.5548
Y.211 Z-.9307 C45.8313
Z-.9464 C45.1074
Z-.9622 C44.3833
Y.2109 Z-.978 C43.6589
Z-.9938 C42.9341
Y.2108 Z-1.0096 C42.2091
Y.2107 Z-1.0255 C41.4836
Y.2106 Z-1.0413 C40.761
X1.248 Y.2104 Z-1.0572 C40.0372
Y.2103 Z-1.0731 C39.312
Y.2102 Z-1.089 C38.5852
Y.21 Z-1.1049 C37.8565
Y.2099 Z-1.1209 C37.1258
Y.2098 Z-1.1368 C36.3928
Z-1.1527 C35.6573
Y.2097 Z-1.1687 C34.919
X1.2479 Z-1.1846 C34.1778
Y.2096 Z-1.2005 C33.4336
Z-1.2164 C32.6875
Z-1.2324 C31.9398
X1.2478 Z-1.2482 C31.1906
Z-1.2641 C30.4399
Z-1.28 C29.688
X1.2477 Z-1.2958 C28.9348
Z-1.3116 C28.1806
Y.2095 Z-1.3274 C27.4254
X1.2476 Z-1.3432 C26.6694
Y.2094 Z-1.359 C25.9126
Y.2093 Z-1.3747 C25.1551
Y.2092 Z-1.3904 C24.3971
Y.209 Z-1.4062 C23.6386
X1.2475 Y.2088 Z-1.4218 C22.8796
Y.2086 Z-1.4375 C22.1202
Y.2083 Z-1.4531 C21.3605
X1.2491 Y.2001 Z-1.4688 C21.0417
X1.2507 Y.1923 Z-1.4824 C20.7423 B94.6983
X1.2522 Y.1844 Z-1.4952 C20.4453 B94.2229
X1.2537 Y.1763 Z-1.5081 C20.1509 B93.7464
X1.2551 Y.1682 Z-1.5209 C19.8593 B93.2687
X1.2547 Y.1558 Z-1.5319 C19.9208 B93.2373
X1.2542 Y.142 Z-1.5422 C19.975 B93.2607
X1.2536 Y.1271 Z-1.5515 C20.0019 B93.3375
X1.253 Y.1129 Z-1.559 C19.9854 B93.4507
X1.2526 Y.0986 Z-1.565 C19.9141 B93.5932
X1.2522 Y.0848 Z-1.5694 C19.7769 B93.7491
X1.2519 Y.0718 Z-1.572 C19.5679 B93.899
Y.0599 Z-1.5726 C19.2877 B94.0216
X1.2521 Y.0494 Z-1.5711 C18.9435 B94.0964
X1.2526 Y.0396 Z-1.5672 C18.5169 B94.1036
X1.2533 Y.0314 Z-1.561 C18.0548 B94.0201
X1.2542 Y.0246 Z-1.5528 C17.5834 B93.8394
X1.2551 Y.0185 Z-1.5421 C17.0977 B93.5402
X1.2559 Y.0133 Z-1.5298 C16.6591 B93.1438
X1.2584 Y-.013 Z-1.5108 C17.1006 B92.6245
X1.2602 Y-.036 Z-1.4942 C17.4873 B92.17
X1.2608 Y-.0393 Z-1.4918 C17.5421 B92.1045
X1.2621 Y-.0459 Z-1.477 C17.2135 B91.6509
X1.2633 Y-.0519 Z-1.4608 C16.9565 B91.1206
X1.2644 Y-.0578 Z-1.4426 C16.7803 B90.4943
X1.2651 Y-.0635 Z-1.424 C16.7159 B89.8373
X1.2656 Y-.0696 Z-1.4041 C16.77 B89.1327
X1.2657 Y-.076 Z-1.3836 C16.9578 B88.4097
X1.2655 Y-.0829 Z-1.3627 C17.2854 B87.702
X1.2648 Y-.0895 Z-1.3436 C17.7109 B87.0893
X1.2639 Y-.0962 Z-1.3252 C18.2412 B86.5464
X1.2627 Y-.1027 Z-1.3078 C18.8579 B86.0948
X1.2613 Y-.1089 Z-1.2917 C19.5376 B85.7499
X1.2599 Y-.1144 Z-1.2771 C20.2544 B85.5198
X1.2583 Y-.1193 Z-1.2633 C21.0384 B85.4012
X1.2571 Y-.1223 Z-1.2539 C21.6457 B85.3983
X1.2573 Y-.1175 Z-1.239 C22.1889 B85.6755
X1.2579 Y-.1128 Z-1.224 C22.7368 B85.9509
X1.2585 Y-.1082 Z-1.209 C23.2872 B86.2245
X1.2591 Y-.1037 Z-1.1939 C23.8402 B86.4964
Y-.1036 Z-1.1778 C24.6339 B86.4999
Y-.1035 Z-1.1616 C25.4278 B86.5015
Y-.1034 Z-1.1453 C26.2218 B86.5014
X1.2592 Z-1.129 C27.0158 B86.4998
X1.2591 Z-1.1207 C27.4229 B86.4984
X1.2592 Z-1.1123 C27.8295 B86.4967
Z-1.1039 C28.2364 B86.4947
Z-1.0955 C28.6429 B86.4923
Z-1.0871 C29.0496 B86.4897
Z-1.0787 C29.4559 B86.4868
Z-1.0703 C29.8624 B86.4837
Y-.1035 Z-1.0618 C30.2684 B86.4804
Z-1.0534 C30.6746 B86.4769
Z-1.0449 C31.0803 B86.4732
Y-.1036 Z-1.0364 C31.4861 B86.4695
Z-1.028 C31.8915 B86.4655
Z-1.0195 C32.2968 B86.4616
Y-.1037 Z-1.011 C32.7017 B86.4573
Z-1.0025 C33.1066 B86.4533
X1.2593 Z-.994 C33.5111 B86.449
X1.2592 Y-.1038 Z-.9854 C33.9154 B86.445
X1.2593 Z-.9769 C34.3193 B86.4406
X1.2592 Y-.1039 Z-.9683 C34.723 B86.4367
X1.2593 Z-.9598 C35.1262 B86.4324
X1.2592 Z-.9512 C35.5293 B86.4286
X1.2593 Y-.104 Z-.9427 C35.9319 B86.4245
X1.2592 Z-.9341 C36.3342 B86.4211
X1.2593 Z-.9255 C36.7361 B86.4174
X1.2592 Z-.9169 C37.1372 B86.4149
X1.2593 Z-.9083 C37.538 B86.4121
Z-.891 C38.3376 B86.4085
Y-.1039 Z-.8738 C39.1354 B86.4065
Z-.8565 C39.9315 B86.4058
Y-.1038 Z-.8392 C40.7263 B86.4062
Y-.1036 Z-.8219 C41.5201 B86.4075
X1.2594 Y-.1035 Z-.8045 C42.3107 B86.4125
Y-.1033 Z-.7872 C43.1024 B86.4164
Y-.1032 Z-.7698 C43.895 B86.4193
Y-.103 Z-.7524 C44.6886 B86.4214
Y-.1029 Z-.735 C45.483 B86.4231
Y-.1028 Z-.7176 C46.2783 B86.4245
Y-.1026 Z-.7001 C47.0744 B86.426
Y-.1025 Z-.6827 C47.8712 B86.4276
Y-.1024 Z-.6652 C48.6687 B86.4296
Y-.1022 Z-.6478 C49.4691
Z-.6391 C49.8704 B86.429
Z-.6303 C50.2718 B86.4284
Y-.1021 Z-.6216 C50.6744 B86.427
Z-.6129 C51.0771 B86.4258
X1.2593 Z-.6041 C51.4812 B86.4236
X1.2594 Z-.5954 C51.8853 B86.4216
X1.2593 Z-.5867 C52.2897 B86.4191
Z-.578 C52.6941 B86.4167
Y-.102 Z-.5693 C53.0978 B86.4152
Z-.5606 C53.5015 B86.4138
Z-.5519 C53.9049 B86.4132
Y-.1019 Z-.5432 C54.3083 B86.4127
Z-.5345 C54.7115 B86.4129
Y-.1018 Z-.5258 C55.1148 B86.4132
Y-.1017 Z-.5171 C55.5179 B86.4141
Z-.5084 C55.9212 B86.4151
Y-.1016 Z-.4997 C56.3244 B86.4165
Y-.1015 Z-.4911 C56.7279 B86.4181
Y-.1014 Z-.4824 C57.1315 B86.42
Y-.1013 Z-.4737 C57.5352 B86.422
Y-.1012 Z-.465 C57.9393 B86.4242
Y-.1011 Z-.4564 C58.3437 B86.4265
Y-.101 Z-.4477 C58.7484 B86.4288
Y-.1009 Z-.4391 C59.1534 B86.4314
Y-.1008 Z-.4304 C59.559 B86.4338
Y-.1007 Z-.4218 C59.9649 B86.4364
Y-.1006 Z-.4131 C60.3716 B86.4387
Y-.1005 Z-.4045 C60.7785 B86.4414
Y-.1004 Z-.3959 C61.1864 B86.4435
Y-.1003 Z-.3873 C61.5945 B86.4459
X1.2592 Y-.1002 Z-.3786 C62.0038 B86.4478
X1.2593 Y-.1001 Z-.37 C62.4134 B86.4499
X1.2592 Y-.1 Z-.3614 C62.8243 B86.4513
Y-.0999 Z-.3528 C63.2355 B86.4531
Y-.0998 Z-.3442 C63.6481 B86.4539
Z-.3357 C64.061 B86.4552
Y-.0997 Z-.3271 C64.4756 B86.4553
Y-.0996 Z-.3185 C64.8906 B86.4559
Z-.3099 C65.3072 B86.4553
Y-.0995 Z-.3014 C65.7244 B86.4551
X1.2591 Z-.2928 C66.1434 B86.4536
Z-.2843 C66.5628 B86.4525
Y-.0994 Z-.2758 C66.9843 B86.4499
Z-.2672 C67.4063 B86.4479
Z-.2587 C67.8305 B86.4441
Y-.0995 Z-.2502 C68.2552 B86.441
X1.259 Z-.2417 C68.6821 B86.436
Z-.2332 C69.1097 B86.4318
Y-.0996 Z-.2247 C69.5392 B86.4261
Z-.2162 C69.9693 B86.4211
X1.2589 Y-.0997 Z-.2078 C70.4011 B86.4149
Z-.1994 C70.8335 B86.4093
Y-.0998 Z-.1909 C71.2675 B86.4028
Y-.0999 Z-.1825 C71.7021 B86.397
X1.2588 Y-.1 Z-.1741 C72.1379 B86.3903
Y-.1001 Z-.1657 C72.5745 B86.3844
X1.2587 Z-.1574 C73.0122 B86.3778
Y-.1002 Z-.149 C73.4506 B86.372
Y-.1003 Z-.1407 C73.8898 B86.3656
Y-.1004 Z-.1324 C74.3298 B86.3601
X1.2586 Y-.1005 Z-.1241 C74.7705 B86.3542
Z-.1158 C75.212 B86.3491
X1.2585 Y-.1006 Z-.1075 C75.6539 B86.3438
Z-.0992 C76.0967 B86.3395
Y-.1007 Z-.091 C76.5397 B86.335
Z-.0828 C76.9835 B86.3316
X1.2584 Z-.0746 C77.4274 B86.3282
Y-.1008 Z-.0664 C77.8721 B86.3258
X1.2583 Y-.1007 Z-.0583 C78.3167 B86.3236
Z-.0501 C78.7621 B86.3225
Z-.042 C79.2072 B86.3217
Y-.1006 Z-.0339 C79.6532 B86.3221
X1.2582 Y-.1005 Z-.0261 C80.0862 B86.323
X1.2583 Z-.0182 C80.5202 B86.3249
X1.2582 Y-.1003 Z-.0104 C80.9533 B86.3275
Y-.1002 Z-.0026 C81.3874 B86.3311
Y-.1 Z.0052 C81.8206 B86.3356
Y-.0999 Z.0129 C82.2547 B86.3412
X1.2581 Y-.0996 Z.0206 C82.6876 B86.3478
X1.2582 Y-.0994 Z.0284 C83.1215 B86.3556
X1.2592 Y-.0881 Z.0415 C83.3932 B86.9365
X1.2602 Y-.0765 Z.0546 C83.6556 B87.5178
X1.261 Y-.0646 Z.0676 C83.908 B88.0993
X1.2617 Y-.0525 Z.0805 C84.1499 B88.6811
X1.2613 Y-.039 Z.0906 C84.0844 B88.6772
X1.2606 Y-.0244 Z.0998 C84.0373 B88.6189
X1.2595 Y-.0091 Z.1079 C84.0281 B88.511
X1.2586 Y.0052 Z.1141 C84.0703 B88.3752
X1.2577 Y.0193 Z.1188 C84.1748 B88.2185
X1.2569 Y.0327 Z.1217 C84.3506 B88.059
X1.2565 Y.0451 Z.1227 C84.6008 B87.9178
X1.2564 Y.0561 Z.1217 C84.9216 B87.8166
X1.2567 Y.0657 Z.1185 C85.3022 B87.7758
X1.2575 Y.0745 Z.1128 C85.7599 B87.8176
X1.2586 Y.0818 Z.1049 C86.2414 B87.9605
X1.26 Y.0881 Z.0942 C86.7518 B88.2293
X1.2613 Y.0934 Z.0817 C87.2239 B88.6103
X1.2623 Y.0977 Z.0688 C87.6057 B89.0522
X1.2617 Y.1237 Z.0485 C87.0927 B89.4971
X1.2607 Y.1497 Z.0283 C86.5786 B89.9432
X1.2618 Y.1554 Z.0121 C86.8826 B90.4649
X1.2626 Y.1608 Z-.0051 C87.0988 B91.0597
X1.263 Y.1664 Z-.0243 C87.2162 B91.7462
X1.2629 Y.1723 Z-.045 C87.2047 B92.5029
X1.2623 Y.1784 Z-.0654 C87.0561 B93.244
X1.261 Y.185 Z-.0862 C86.7625 B93.9849
X1.2593 Y.1916 Z-.1054 C86.3586 B94.6405
X1.2582 Y.1953 Z-.1156 C86.0912 B94.9699
X1.258 Y.1958 Z-.117 C86.0503 B95.
X1.2556 Y.2033 Z-.1344 C85.4132
X1.2527 Y.2106 Z-.151 C84.6746
X1.2499 Y.217 Z-.1654 C83.9263
X1.2469 Y.2226 Z-.1786 C83.147
X1.2441 Y.2271 Z-.1906 C82.3649
X1.2414 Y.2305 Z-.2011 C81.6052
X1.2422 Y.2258 Z-.2148 C81.0494
X1.2434 Y.2208 Z-.2269 C80.6033
X1.2445 Y.216 Z-.2391 C80.1513
X1.2456 Y.2114 Z-.2514 C79.6936
X1.2467 Y.2066 Z-.2647 C79.1987
X1.2468 Y.2067 Z-.278 C78.4295
Y.2069 Z-.2914 C77.6594
X1.2469 Y.2071 Z-.3049 C76.8884
Y.2074 Z-.3184 C76.1171
Y.2077 Z-.3321 C75.3456
X1.247 Y.2081 Z-.3458 C74.5743
Y.2084 Z-.3596 C73.8033
Y.2088 Z-.3735 C73.0331
Y.2093 Z-.3875 C72.2639
Y.2097 Z-.4016 C71.496
Y.2101 Z-.4157 C70.7297
X1.2469 Y.2105 Z-.4299 C69.9653
Y.2109 Z-.4442 C69.2031
Y.2112 Z-.4586 C68.4433
Y.2116 Z-.473 C67.6863
Y.2119 Z-.4875 C66.9324
Y.2121 Z-.5021 C66.1817
Y.2123 Z-.5168 C65.4345
X1.247 Y.2125 Z-.5315 C64.6905
Y.2126 Z-.5463 C63.9496
Y.2127 Z-.5611 C63.2116
X1.2471 Y.2128 Z-.5761 C62.4762
Z-.591 C61.7432
Z-.606 C61.0125
X1.2472 Y.2127 Z-.6211 C60.2838
Z-.6363 C59.5569
X1.2473 Y.2126 Z-.6514 C58.8315
Y.2125 Z-.6667 C58.1076
X1.2474 Y.2124 Z-.6819 C57.3848
Y.2123 Z-.6972 C56.6625
X1.2475 Y.2122 Z-.7126 C55.9407
Y.2121 Z-.728 C55.2191
Y.212 Z-.7434 C54.4973
X1.2476 Y.2119 Z-.7589 C53.7751
Y.2118 Z-.7744 C53.0524
X1.2477 Y.2116 Z-.7899 C52.3332
Y.2115 Z-.8055 C51.6128
Y.2114 Z-.8211 C50.8913
X1.2478 Y.2113 Z-.8367 C50.1687
Z-.8523 C49.4465
Y.2112 Z-.8559 C49.2824
Y.2123 Z-.8678 C48.7639 B94.9997
X1.2477 Y.2146 Z-.8807 C48.2536 B94.9991
X1.2475 Y.2185 Z-.8947 C47.7434 B94.998
X1.247 Y.2243 Z-.9095 C47.2335 B94.9966
X1.2462 Y.232 Z-.9249 C46.724 B94.9947
X1.245 Y.2416 Z-.9406 C46.2148 B94.9925
X1.2434 Y.2532 Z-.9564 C45.7062 B94.9899
X1.2412 Y.2666 Z-.972 C45.1981 B94.9869
X1.2385 Y.282 Z-.9872 C44.6907 B94.9835
X1.2352 Y.2991 Z-1.0017 C44.1841 B94.9797
X1.2312 Y.318 Z-1.0153 C43.6782 B94.9755
X1.2266 Y.3383 Z-1.0278 C43.1732 B94.971
X1.2245 Y.3472 Z-1.0327 C42.9634 B94.969
X1.7226 Z-1.076
X1.6899 Y.2536 Z-.8903 C55.7747 B94.9654
X1.1918 Z-.847 F10.
X1.1907 Y.2532 Z-.8425 C55.5592 B94.9675
X1.1883 Y.2514 Z-.8329 C55.0408 B94.9725
X1.1861 Y.2485 Z-.825 C54.5213 B94.977
X1.1842 Y.2447 Z-.8189 C54.0009 B94.9811
X1.1825 Y.2403 Z-.8146 C53.4797 B94.9849
X1.1812 Y.2354 Z-.8123 C52.9578 B94.9882
X1.1801 Y.2304 Z-.812 C52.4352 B94.9911
X1.1793 Y.2256 Z-.8137 C51.912 B94.9937
X1.1788 Y.221 Z-.8173 C51.3884 B94.9957
X1.1784 Y.2171 Z-.8229 C50.8643 B94.9974
X1.1782 Y.214 Z-.8302 C50.34 B94.9987
X1.1781 Y.212 Z-.8393 C49.8154 B94.9996
Y.2112 Z-.8498 C49.2824 B95. F30.
Z-.8619 C48.724
Z-.8775 C48.0012
Y.2111 Z-.8932 C47.2782
Z-.9089 C46.5548
Y.211 Z-.9246 C45.8313
X1.1782 Z-.9403 C45.1074
Z-.9561 C44.3833
Y.2109 Z-.9719 C43.6589
Z-.9877 C42.9341
Y.2108 Z-1.0035 C42.2091
Y.2107 Z-1.0194 C41.4836
Y.2106 Z-1.0352 C40.761
Y.2104 Z-1.0511 C40.0372
Y.2103 Z-1.067 C39.312
Y.2102 Z-1.0829 C38.5852
X1.1783 Y.21 Z-1.0988 C37.8565
Y.2099 Z-1.1148 C37.1258
Y.2098 Z-1.1307 C36.3928
X1.1782 Z-1.1466 C35.6573
Y.2097 Z-1.1626 C34.919
Z-1.1785 C34.1778
Y.2096 Z-1.1944 C33.4336
X1.1781 Z-1.2103 C32.6875
Z-1.2263 C31.9398
Z-1.2421 C31.1906
Z-1.258 C30.4399
X1.178 Z-1.2739 C29.688
Z-1.2897 C28.9348
Z-1.3055 C28.1806
X1.1779 Y.2095 Z-1.3213 C27.4254
Z-1.3371 C26.6694
Y.2094 Z-1.3529 C25.9126
Y.2093 Z-1.3686 C25.1551
X1.1778 Y.2092 Z-1.3843 C24.3971
Y.209 Z-1.4001 C23.6386
Y.2088 Z-1.4157 C22.8796
Y.2086 Z-1.4314 C22.1202
Y.2083 Z-1.447 C21.3605
X1.1794 Y.2001 Z-1.4627 C21.0417
X1.1809 Y.1923 Z-1.4766 C20.7423 B94.6983
X1.1824 Y.1844 Z-1.4901 C20.4453 B94.2229
X1.1838 Y.1763 Z-1.5035 C20.1509 B93.7464
X1.1852 Y.1682 Z-1.517 C19.8593 B93.2687
X1.1849 Y.1558 Z-1.528 C19.9208 B93.2373
X1.1843 Y.142 Z-1.5382 C19.975 B93.2607
X1.1837 Y.1271 Z-1.5474 C20.0019 B93.3375
X1.1832 Y.1129 Z-1.5548 C19.9854 B93.4507
X1.1827 Y.0986 Z-1.5606 C19.9141 B93.5932
X1.1823 Y.0848 Z-1.5649 C19.7769 B93.7491
X1.1821 Y.0718 Z-1.5672 C19.5679 B93.899
Y.0599 Z-1.5677 C19.2877 B94.0216
X1.1823 Y.0494 Z-1.5661 C18.9435 B94.0964
X1.1828 Y.0396 Z-1.5622 C18.5169 B94.1036
X1.1835 Y.0314 Z-1.5561 C18.0548 B94.0201
X1.1843 Y.0246 Z-1.5481 C17.5834 B93.8394
X1.1852 Y.0185 Z-1.5378 C17.0977 B93.5402
X1.186 Y.0133 Z-1.5259 C16.6591 B93.1438
X1.1885 Y-.013 Z-1.5076 C17.1006 B92.6245
X1.1903 Y-.036 Z-1.4916 C17.4873 B92.17
X1.1909 Y-.0393 Z-1.4893 C17.5421 B92.1045
X1.1921 Y-.0459 Z-1.475 C17.2135 B91.6509
X1.1933 Y-.0519 Z-1.4595 C16.9565 B91.1206
X1.1944 Y-.0578 Z-1.442 C16.7803 B90.4943
X1.1951 Y-.0635 Z-1.4242 C16.7159 B89.8373
X1.1956 Y-.0696 Z-1.4052 C16.77 B89.1327
X1.1958 Y-.076 Z-1.3855 C16.9578 B88.4097
X1.1955 Y-.0829 Z-1.3655 C17.2854 B87.702
X1.1949 Y-.0895 Z-1.3472 C17.7109 B87.0893
X1.194 Y-.0962 Z-1.3294 C18.2412 B86.5464
X1.1929 Y-.1027 Z-1.3125 C18.8579 B86.0948
X1.1915 Y-.1089 Z-1.2968 C19.5376 B85.7499
X1.1901 Y-.1144 Z-1.2826 C20.2544 B85.5198
X1.1885 Y-.1193 Z-1.2689 C21.0384 B85.4012
X1.1874 Y-.1223 Z-1.2595 C21.6457 B85.3983
X1.1875 Y-.1175 Z-1.2442 C22.1889 B85.6755
X1.1881 Y-.1128 Z-1.2289 C22.7368 B85.9509
X1.1887 Y-.1082 Z-1.2136 C23.2872 B86.2245
X1.1892 Y-.1037 Z-1.1982 C23.8402 B86.4964
Y-.1036 Z-1.182 C24.6339 B86.4999
X1.1893 Y-.1035 Z-1.1658 C25.4278 B86.5015
Y-.1034 Z-1.1496 C26.2218 B86.5014
Z-1.1333 C27.0158 B86.4998
Z-1.1249 C27.4229 B86.4984
Z-1.1166 C27.8295 B86.4967
Z-1.1082 C28.2364 B86.4947
Z-1.0998 C28.6429 B86.4923
Z-1.0914 C29.0496 B86.4897
Z-1.083 C29.4559 B86.4868
Z-1.0746 C29.8624 B86.4837
X1.1894 Y-.1035 Z-1.0661 C30.2684 B86.4804
X1.1893 Z-1.0577 C30.6746 B86.4769
X1.1894 Z-1.0492 C31.0803 B86.4732
X1.1893 Y-.1036 Z-1.0408 C31.4861 B86.4695
X1.1894 Z-1.0323 C31.8915 B86.4655
Z-1.0238 C32.2968 B86.4616
Y-.1037 Z-1.0153 C32.7017 B86.4573
Z-1.0068 C33.1066 B86.4533
Z-.9983 C33.5111 B86.449
Y-.1038 Z-.9898 C33.9154 B86.445
Z-.9812 C34.3193 B86.4406
Y-.1039 Z-.9727 C34.723 B86.4367
Z-.9642 C35.1262 B86.4324
Z-.9556 C35.5293 B86.4286
Y-.104 Z-.947 C35.9319 B86.4245
Z-.9384 C36.3342 B86.4211
Z-.9299 C36.7361 B86.4174
Z-.9213 C37.1372 B86.4149
Z-.9127 C37.538 B86.4121
Z-.8954 C38.3376 B86.4086
Y-.1039 Z-.8782 C39.1354 B86.4065
Z-.8609 C39.9315 B86.4058
X1.1895 Y-.1038 Z-.8436 C40.7263 B86.4062
Y-.1036 Z-.8263 C41.5201 B86.4075
Y-.1035 Z-.8089 C42.3107 B86.4125
Y-.1033 Z-.7916 C43.1024 B86.4164
Y-.1032 Z-.7742 C43.895 B86.4193
Y-.103 Z-.7568 C44.6886 B86.4214
Y-.1029 Z-.7394 C45.483 B86.4231
Y-.1028 Z-.7219 C46.2783 B86.4246
Y-.1026 Z-.7045 C47.0744 B86.426
Y-.1025 Z-.687 C47.8712 B86.4276
Y-.1024 Z-.6696 C48.6687 B86.4296
Y-.1022 Z-.6521 C49.4691
Z-.6434 C49.8704 B86.429
Z-.6347 C50.2718 B86.4284
Y-.1021 Z-.626 C50.6744 B86.427
Z-.6172 C51.0771 B86.4258
Z-.6085 C51.4812 B86.4236
Z-.5998 C51.8853 B86.4216
Z-.5911 C52.2897 B86.4191
Z-.5824 C52.6941 B86.4167
Y-.102 Z-.5737 C53.0978 B86.4152
Z-.565 C53.5015 B86.4138
X1.1894 Z-.5563 C53.9049 B86.4132
X1.1895 Y-.1019 Z-.5476 C54.3083 B86.4127
X1.1894 Z-.5389 C54.7115 B86.4129
X1.1895 Y-.1018 Z-.5302 C55.1148 B86.4132
X1.1894 Y-.1017 Z-.5215 C55.5179 B86.4141
X1.1895 Z-.5128 C55.9212 B86.4151
X1.1894 Y-.1016 Z-.5041 C56.3244 B86.4165
X1.1895 Y-.1015 Z-.4954 C56.7279 B86.4181
X1.1894 Y-.1014 Z-.4868 C57.1315 B86.42
Y-.1013 Z-.4781 C57.5352 B86.422
Y-.1012 Z-.4694 C57.9393 B86.4242
Y-.1011 Z-.4607 C58.3437 B86.4265
Y-.101 Z-.4521 C58.7484 B86.4288
Y-.1009 Z-.4434 C59.1534 B86.4314
Y-.1008 Z-.4348 C59.559 B86.4338
Y-.1007 Z-.4261 C59.9649 B86.4364
Y-.1006 Z-.4175 C60.3716 B86.4387
Y-.1005 Z-.4089 C60.7785 B86.4414
Y-.1004 Z-.4002 C61.1864 B86.4435
Y-.1003 Z-.3916 C61.5945 B86.4459
Y-.1002 Z-.383 C62.0038 B86.4478
Y-.1001 Z-.3744 C62.4134 B86.4499
Y-.1 Z-.3658 C62.8243 B86.4513
Y-.0999 Z-.3572 C63.2355 B86.4531
X1.1893 Y-.0998 Z-.3486 C63.6481 B86.4539
X1.1894 Z-.34 C64.061 B86.4552
X1.1893 Y-.0997 Z-.3314 C64.4756 B86.4553
Y-.0996 Z-.3228 C64.8906 B86.4559
Z-.3143 C65.3072 B86.4553
Y-.0995 Z-.3057 C65.7244 B86.4551
Z-.2972 C66.1434 B86.4536
Z-.2886 C66.5628 B86.4525
X1.1892 Y-.0994 Z-.2801 C66.9843 B86.4499
Z-.2716 C67.4063 B86.4479
Z-.263 C67.8305 B86.4441
Y-.0995 Z-.2545 C68.2552 B86.441
Z-.246 C68.6821 B86.436
Z-.2376 C69.1097 B86.4317
X1.1891 Y-.0996 Z-.2291 C69.5392 B86.4261
Z-.2206 C69.9693 B86.4211
X1.189 Y-.0997 Z-.2122 C70.4011 B86.4149
Z-.2037 C70.8335 B86.4093
Y-.0998 Z-.1953 C71.2675 B86.4028
Y-.0999 Z-.1869 C71.7021 B86.397
X1.1889 Y-.1 Z-.1785 C72.1379 B86.3903
Y-.1001 Z-.1702 C72.5745 B86.3844
Z-.1618 C73.0122 B86.3778
Y-.1002 Z-.1534 C73.4505 B86.372
X1.1888 Y-.1003 Z-.1451 C73.8898 B86.3656
Y-.1004 Z-.1368 C74.3298 B86.3601
X1.1887 Y-.1005 Z-.1285 C74.7705 B86.3542
Z-.1202 C75.212 B86.3491
Y-.1006 Z-.112 C75.6539 B86.3438
Z-.1037 C76.0967 B86.3395
X1.1886 Y-.1007 Z-.0955 C76.5397 B86.335
Z-.0873 C76.9835 B86.3316
X1.1885 Z-.0791 C77.4274 B86.3282
Y-.1008 Z-.0709 C77.8721 B86.3258
Y-.1007 Z-.0628 C78.3167 B86.3236
Z-.0546 C78.7621 B86.3225
X1.1884 Z-.0465 C79.2072 B86.3217
Y-.1006 Z-.0384 C79.6532 B86.3221
Y-.1005 Z-.0305 C80.0862 B86.323
Z-.0227 C80.5202 B86.3249
X1.1883 Y-.1003 Z-.0149 C80.9533 B86.3275
X1.1884 Y-.1002 Z-.0071 C81.3874 B86.3311
X1.1883 Y-.1 Z.0007 C81.8206 B86.3356
Y-.0999 Z.0085 C82.2547 B86.3413
Y-.0996 Z.0162 C82.6876 B86.3478
Y-.0994 Z.0239 C83.1215 B86.3556
X1.1893 Y-.0881 Z.0378 C83.3932 B86.9365
X1.1903 Y-.0765 Z.0516 C83.6556 B87.5178
X1.191 Y-.0646 Z.0653 C83.908 B88.0993
X1.1917 Y-.0525 Z.0789 C84.1499 B88.6811
X1.1913 Y-.039 Z.089 C84.0844 B88.6772
X1.1906 Y-.0244 Z.0982 C84.0373 B88.6189
X1.1896 Y-.0091 Z.1061 C84.0281 B88.511
X1.1886 Y.0052 Z.1121 C84.0703 B88.3752
X1.1877 Y.0193 Z.1166 C84.1748 B88.2185
X1.187 Y.0327 Z.1194 C84.3506 B88.059
X1.1865 Y.0451 Z.1202 C84.6008 B87.9178
Y.0561 Z.119 C84.9216 B87.8166
X1.1868 Y.0657 Z.1158 C85.3022 B87.7758
X1.1876 Y.0745 Z.1101 C85.7599 B87.8176
X1.1887 Y.0818 Z.1024 C86.2414 B87.9605
X1.1901 Y.0881 Z.092 C86.7518 B88.2293
X1.1913 Y.0934 Z.08 C87.2239 B88.6103
X1.1923 Y.0977 Z.0676 C87.6057 B89.0522
X1.1917 Y.1237 Z.0479 C87.0927 B89.4971
X1.1907 Y.1497 Z.0282 C86.5786 B89.9432
X1.1918 Y.1554 Z.0127 C86.8826 B90.4649
X1.1926 Y.1608 Z-.0038 C87.0987 B91.0597
X1.193 Y.1664 Z-.0222 C87.2162 B91.7462
Y.1723 Z-.042 C87.2047 B92.5029
X1.1924 Y.1784 Z-.0614 C87.0561 B93.244
X1.1912 Y.185 Z-.0813 C86.7625 B93.9849
X1.1895 Y.1916 Z-.0998 C86.3586 B94.6405
X1.1884 Y.1953 Z-.1096 C86.0912 B94.9699
X1.1883 Y.1958 Z-.1109 C86.0503 B95.
X1.1858 Y.2033 Z-.1283 C85.4132
X1.183 Y.2106 Z-.1449 C84.6746
X1.1801 Y.217 Z-.1593 C83.9263
X1.1772 Y.2226 Z-.1725 C83.147
X1.1744 Y.2271 Z-.1845 C82.3649
X1.1717 Y.2305 Z-.195 C81.6052
X1.1725 Y.2258 Z-.2086 C81.0494
X1.1737 Y.2208 Z-.2208 C80.6033
X1.1748 Y.216 Z-.233 C80.1513
X1.1759 Y.2114 Z-.2453 C79.6936
X1.177 Y.2066 Z-.2586 C79.1987
Y.2067 Z-.2719 C78.4295
X1.1771 Y.2069 Z-.2853 C77.6593
Y.2071 Z-.2988 C76.8884
X1.1772 Y.2074 Z-.3123 C76.1171
Y.2077 Z-.326 C75.3456
Y.2081 Z-.3397 C74.5743
Y.2084 Z-.3535 C73.8033
Y.2088 Z-.3674 C73.0331
Y.2093 Z-.3814 C72.2639
Y.2097 Z-.3955 C71.496
Y.2101 Z-.4096 C70.7297
Y.2105 Z-.4238 C69.9653
Y.2109 Z-.4381 C69.2031
Y.2112 Z-.4525 C68.4433
Y.2116 Z-.4669 C67.6863
Y.2119 Z-.4814 C66.9324
Y.2121 Z-.496 C66.1817
Y.2123 Z-.5107 C65.4345
Y.2125 Z-.5254 C64.6905
X1.1773 Y.2126 Z-.5402 C63.9496
Y.2127 Z-.555 C63.2116
Y.2128 Z-.5699 C62.4762
X1.1774 Z-.5849 C61.7432
Z-.5999 C61.0125
Y.2127 Z-.615 C60.2838
X1.1775 Z-.6302 C59.5569
Y.2126 Z-.6453 C58.8316
X1.1776 Y.2125 Z-.6606 C58.1076
Y.2124 Z-.6758 C57.3848
X1.1777 Y.2123 Z-.6911 C56.6626
Y.2122 Z-.7065 C55.9407
X1.1778 Y.2121 Z-.7219 C55.2191
Y.212 Z-.7373 C54.4973
X1.1779 Y.2119 Z-.7528 C53.7751
Y.2118 Z-.7683 C53.0524
Y.2116 Z-.7838 C52.3332
X1.178 Y.2115 Z-.7994 C51.6128
Y.2114 Z-.815 C50.8913
Y.2113 Z-.8306 C50.1687
X1.1781 Z-.8462 C49.4465
Y.2112 Z-.8498 C49.2824
X1.178 Y.2123 Z-.862 C48.7493 B94.9997
Y.2146 Z-.8752 C48.2247 B94.999
X1.1777 Y.2187 Z-.8894 C47.7002 B94.9979
X1.1772 Y.2246 Z-.9043 C47.176 B94.9964
X1.1764 Y.2324 Z-.9198 C46.6522 B94.9944
X1.1752 Y.2421 Z-.9355 C46.1288 B94.9921
X1.1735 Y.2538 Z-.9513 C45.606 B94.9893
X1.1713 Y.2674 Z-.9668 C45.0838 B94.9861
X1.1686 Y.2829 Z-.9819 C44.5624 B94.9825
X1.1652 Y.3001 Z-.9962 C44.0417 B94.9786
X1.1611 Y.319 Z-1.0096 C43.5219 B94.9742
X1.1563 Y.3393 Z-1.0218 C43.003 B94.9694
X1.1542 Y.3482 Z-1.0265 C42.7874 B94.9673
X1.6523 Z-1.0698
X1.6212 Y.2578 Z-.8789 C55.9546 B94.9635
X1.1231 Z-.8356 F10.
X1.1219 Y.2571 Z-.8313 C55.7333 B94.9658
X1.1193 Y.2547 Z-.8221 C55.2007 B94.971
X1.117 Y.2512 Z-.8146 C54.667 B94.9758
X1.1149 Y.2469 Z-.8089 C54.1323 B94.9801
X1.1131 Y.242 Z-.8051 C53.5967 B94.9841
X1.1117 Y.2367 Z-.8032 C53.0603 B94.9876
X1.1105 Y.2314 Z-.8034 C52.5232 B94.9907
X1.1097 Y.2262 Z-.8055 C51.9855 B94.9933
X1.1091 Y.2214 Z-.8096 C51.4472 B94.9955
X1.1087 Y.2173 Z-.8156 C50.9086 B94.9973
X1.1085 Y.2141 Z-.8234 C50.3695 B94.9986
X1.1084 Y.212 Z-.8329 C49.8303 B94.9995
X1.1083 Y.2112 Z-.8437 C49.2824 B95. F30.
Z-.8558 C48.724
X1.1084 Z-.8714 C48.0012
Y.2111 Z-.8871 C47.2782
Z-.9028 C46.5548
Y.211 Z-.9185 C45.8313
Z-.9342 C45.1074
Z-.95 C44.3833
Y.2109 Z-.9658 C43.6589
Z-.9816 C42.9341
X1.1085 Y.2108 Z-.9974 C42.2091
Y.2107 Z-1.0133 C41.4836
Y.2106 Z-1.0291 C40.761
Y.2104 Z-1.045 C40.0372
Y.2103 Z-1.0609 C39.312
Y.2102 Z-1.0768 C38.5852
Y.21 Z-1.0927 C37.8565
Y.2099 Z-1.1087 C37.1258
Y.2098 Z-1.1246 C36.3928
Z-1.1405 C35.6573
Y.2097 Z-1.1565 C34.919
Z-1.1724 C34.1778
X1.1084 Y.2096 Z-1.1883 C33.4336
Z-1.2042 C32.6875
Z-1.2202 C31.9398
Z-1.236 C31.1906
X1.1083 Z-1.2519 C30.4399
Z-1.2678 C29.688
Z-1.2836 C28.9348
X1.1082 Z-1.2994 C28.1806
Y.2095 Z-1.3152 C27.4254
Z-1.331 C26.6694
Y.2094 Z-1.3468 C25.9126
X1.1081 Y.2093 Z-1.3625 C25.1551
Y.2092 Z-1.3782 C24.3971
Y.209 Z-1.394 C23.6386
Y.2088 Z-1.4096 C22.8796
Y.2086 Z-1.4253 C22.1202
Y.2083 Z-1.4409 C21.3605
X1.1096 Y.2001 Z-1.4566 C21.0417
X1.1111 Y.1923 Z-1.4709 C20.7423 B94.6983
X1.1126 Y.1844 Z-1.4849 C20.4453 B94.2229
X1.114 Y.1763 Z-1.499 C20.1509 B93.7464
X1.1153 Y.1682 Z-1.513 C19.8593 B93.2687
X1.115 Y.1558 Z-1.524 C19.9208 B93.2373
X1.1144 Y.142 Z-1.5343 C19.975 B93.2607
X1.1138 Y.1271 Z-1.5434 C20.0019 B93.3375
X1.1133 Y.1129 Z-1.5505 C19.9854 B93.4507
X1.1128 Y.0986 Z-1.5562 C19.9141 B93.5932
X1.1125 Y.0848 Z-1.5603 C19.7769 B93.7491
X1.1123 Y.0718 Z-1.5625 C19.5679 B93.899
X1.1122 Y.0599 Z-1.5628 C19.2877 B94.0216
X1.1125 Y.0494 Z-1.5611 C18.9435 B94.0964
X1.1129 Y.0396 Z-1.5572 C18.5169 B94.1036
X1.1137 Y.0314 Z-1.5512 C18.0548 B94.0201
X1.1145 Y.0246 Z-1.5434 C17.5834 B93.8394
X1.1154 Y.0185 Z-1.5334 C17.0977 B93.5402
X1.1161 Y.0133 Z-1.5221 C16.6591 B93.1438
X1.1186 Y-.013 Z-1.5044 C17.1006 B92.6245
X1.1203 Y-.036 Z-1.4889 C17.4873 B92.17
X1.1209 Y-.0393 Z-1.4867 C17.5421 B92.1045
X1.1222 Y-.0459 Z-1.473 C17.2135 B91.6509
X1.1233 Y-.0519 Z-1.4581 C16.9565 B91.1206
X1.1244 Y-.0578 Z-1.4414 C16.7803 B90.4943
X1.1251 Y-.0635 Z-1.4243 C16.7159 B89.8373
X1.1256 Y-.0696 Z-1.4062 C16.77 B89.1327
X1.1258 Y-.076 Z-1.3874 C16.9578 B88.4097
X1.1256 Y-.0829 Z-1.3683 C17.2854 B87.702
X1.125 Y-.0895 Z-1.3507 C17.7109 B87.0893
X1.1241 Y-.0962 Z-1.3336 C18.2412 B86.5464
X1.123 Y-.1027 Z-1.3173 C18.8579 B86.0948
X1.1217 Y-.1089 Z-1.302 C19.5376 B85.7499
X1.1203 Y-.1144 Z-1.288 C20.2544 B85.5198
X1.1187 Y-.1193 Z-1.2745 C21.0384 B85.4012
X1.1176 Y-.1223 Z-1.2651 C21.6457 B85.3983
X1.1177 Y-.1175 Z-1.2495 C22.1889 B85.6755
X1.1183 Y-.1128 Z-1.2339 C22.7368 B85.9509
X1.1188 Y-.1082 Z-1.2182 C23.2872 B86.2245
X1.1193 Y-.1037 Z-1.2025 C23.8402 B86.4964
X1.1194 Y-.1036 Z-1.1863 C24.6339 B86.4999
Y-.1035 Z-1.1701 C25.4278 B86.5015
Y-.1034 Z-1.1539 C26.2218 B86.5014
Z-1.1376 C27.0158 B86.4998
Z-1.1292 C27.4229 B86.4984
Z-1.1209 C27.8295 B86.4967
Z-1.1125 C28.2364 B86.4947
X1.1195 Z-1.1041 C28.6429 B86.4923
X1.1194 Z-1.0957 C29.0496 B86.4897
X1.1195 Z-1.0873 C29.4559 B86.4868
Z-1.0789 C29.8624 B86.4837
Y-.1035 Z-1.0704 C30.2684 B86.4803
Z-1.062 C30.6746 B86.4769
Z-1.0535 C31.0803 B86.4732
Y-.1036 Z-1.0451 C31.4861 B86.4695
Z-1.0366 C31.8915 B86.4655
Z-1.0281 C32.2968 B86.4616
Y-.1037 Z-1.0196 C32.7017 B86.4573
Z-1.0111 C33.1066 B86.4533
Z-1.0026 C33.5111 B86.449
Y-.1038 Z-.9941 C33.9154 B86.445
Z-.9856 C34.3193 B86.4406
Y-.1039 Z-.977 C34.723 B86.4367
Z-.9685 C35.1262 B86.4324
Z-.9599 C35.5293 B86.4286
Y-.104 Z-.9514 C35.9319 B86.4245
Z-.9428 C36.3342 B86.4211
Z-.9342 C36.7361 B86.4174
Z-.9256 C37.1372 B86.4149
X1.1196 Z-.917 C37.538 B86.4121
Z-.8998 C38.3376 B86.4086
Y-.1039 Z-.8826 C39.1354 B86.4065
Z-.8653 C39.9315 B86.4058
Y-.1038 Z-.848 C40.7263 B86.4062
Y-.1036 Z-.8306 C41.5201 B86.4076
Y-.1035 Z-.8133 C42.3107 B86.4125
Y-.1033 Z-.7959 C43.1024 B86.4164
Y-.1032 Z-.7785 C43.895 B86.4193
X1.1197 Y-.103 Z-.7611 C44.6886 B86.4214
Y-.1029 Z-.7437 C45.483 B86.4231
Y-.1028 Z-.7263 C46.2783 B86.4245
Y-.1026 Z-.7089 C47.0744 B86.426
Y-.1025 Z-.6914 C47.8712 B86.4276
Y-.1024 Z-.674 C48.6687 B86.4296
Y-.1022 Z-.6565 C49.4691
X1.1196 Z-.6478 C49.8704 B86.4289
X1.1197 Z-.6391 C50.2718 B86.4284
X1.1196 Y-.1021 Z-.6303 C50.6744 B86.427
X1.1197 Z-.6216 C51.0771 B86.4258
X1.1196 Z-.6129 C51.4812 B86.4236
Z-.6041 C51.8854 B86.4216
Z-.5954 C52.2897 B86.4191
Z-.5867 C52.6941 B86.4167
Y-.102 Z-.578 C53.0978 B86.4152
Z-.5693 C53.5015 B86.4138
Z-.5606 C53.9049 B86.4132
Y-.1019 Z-.5519 C54.3083 B86.4127
Z-.5432 C54.7115 B86.4129
Y-.1018 Z-.5346 C55.1148 B86.4132
Y-.1017 Z-.5259 C55.5179 B86.4141
Z-.5172 C55.9212 B86.4151
Y-.1016 Z-.5085 C56.3244 B86.4165
Y-.1015 Z-.4998 C56.7279 B86.4181
Y-.1014 Z-.4911 C57.1315 B86.42
Y-.1013 Z-.4825 C57.5352 B86.422
Y-.1012 Z-.4738 C57.9393 B86.4242
Y-.1011 Z-.4651 C58.3437 B86.4265
X1.1195 Y-.101 Z-.4564 C58.7484 B86.4288
X1.1196 Y-.1009 Z-.4478 C59.1534 B86.4314
X1.1195 Y-.1008 Z-.4391 C59.559 B86.4338
X1.1196 Y-.1007 Z-.4305 C59.9649 B86.4364
X1.1195 Y-.1006 Z-.4218 C60.3716 B86.4387
X1.1196 Y-.1005 Z-.4132 C60.7785 B86.4414
X1.1195 Y-.1004 Z-.4046 C61.1864 B86.4435
Y-.1003 Z-.3959 C61.5945 B86.4459
Y-.1002 Z-.3873 C62.0038 B86.4478
Y-.1001 Z-.3787 C62.4134 B86.4499
Y-.1 Z-.3701 C62.8243 B86.4513
Y-.0999 Z-.3615 C63.2355 B86.4531
Y-.0998 Z-.3529 C63.6481 B86.4539
Z-.3443 C64.061 B86.4552
Y-.0997 Z-.3357 C64.4756 B86.4553
Y-.0996 Z-.3272 C64.8906 B86.4559
X1.1194 Z-.3186 C65.3072 B86.4553
Y-.0995 Z-.31 C65.7244 B86.4551
Z-.3015 C66.1434 B86.4536
Z-.2929 C66.5628 B86.4525
Y-.0994 Z-.2844 C66.9843 B86.4499
Z-.2759 C67.4063 B86.4479
X1.1193 Z-.2674 C67.8305 B86.4441
Y-.0995 Z-.2589 C68.2552 B86.441
Z-.2504 C68.6821 B86.436
Z-.2419 C69.1097 B86.4318
X1.1192 Y-.0996 Z-.2334 C69.5392 B86.4261
Z-.225 C69.9693 B86.4211
Y-.0997 Z-.2166 C70.4011 B86.4149
Z-.2081 C70.8335 B86.4093
X1.1191 Y-.0998 Z-.1997 C71.2675 B86.4028
Y-.0999 Z-.1913 C71.7021 B86.397
Y-.1 Z-.1829 C72.1379 B86.3903
Y-.1001 Z-.1746 C72.5745 B86.3844
X1.119 Z-.1662 C73.0122 B86.3778
Y-.1002 Z-.1579 C73.4505 B86.372
X1.1189 Y-.1003 Z-.1496 C73.8898 B86.3656
Y-.1004 Z-.1412 C74.3298 B86.3601
Y-.1005 Z-.133 C74.7705 B86.3542
Z-.1247 C75.212 B86.3491
X1.1188 Y-.1006 Z-.1164 C75.6539 B86.3438
Z-.1082 C76.0967 B86.3395
Y-.1007 Z-.1 C76.5397 B86.335
Z-.0918 C76.9835 B86.3316
X1.1187 Z-.0836 C77.4274 B86.3282
Y-.1008 Z-.0754 C77.8721 B86.3258
X1.1186 Y-.1007 Z-.0672 C78.3167 B86.3236
Z-.0591 C78.7621 B86.3225
Z-.051 C79.2072 B86.3217
Y-.1006 Z-.0429 C79.6532 B86.3221
X1.1185 Y-.1005 Z-.035 C80.0862 B86.323
Z-.0272 C80.5202 B86.3249
Y-.1003 Z-.0194 C80.9533 B86.3275
Y-.1002 Z-.0116 C81.3874 B86.3311
Y-.1 Z-.0038 C81.8206 B86.3356
Y-.0999 Z.004 C82.2547 B86.3412
X1.1184 Y-.0996 Z.0117 C82.6876 B86.3478
Y-.0994 Z.0195 C83.1215 B86.3556
X1.1194 Y-.0881 Z.034 C83.3932 B86.9365
X1.1203 Y-.0765 Z.0485 C83.6556 B87.5178
X1.1211 Y-.0646 Z.0629 C83.908 B88.0993
X1.1217 Y-.0525 Z.0773 C84.1499 B88.6811
X1.1213 Y-.039 Z.0874 C84.0844 B88.6772
X1.1206 Y-.0244 Z.0965 C84.0373 B88.6189
X1.1196 Y-.0091 Z.1043 C84.0281 B88.511
X1.1186 Y.0052 Z.1102 C84.0703 B88.3752
X1.1177 Y.0193 Z.1145 C84.1748 B88.2185
X1.117 Y.0327 Z.117 C84.3506 B88.059
X1.1166 Y.0451 Z.1176 C84.6008 B87.9178
X1.1165 Y.0561 Z.1163 C84.9216 B87.8166
X1.1169 Y.0657 Z.1131 C85.3022 B87.7758
X1.1176 Y.0745 Z.1075 C85.7599 B87.8176
X1.1187 Y.0818 Z.0999 C86.2414 B87.9605
X1.1201 Y.0881 Z.0899 C86.7518 B88.2293
X1.1213 Y.0934 Z.0783 C87.2239 B88.6103
X1.1223 Y.0977 Z.0665 C87.6057 B89.0522
X1.1217 Y.1237 Z.0473 C87.0927 B89.4971
X1.1207 Y.1497 Z.0281 C86.5786 B89.9432
X1.1218 Y.1554 Z.0133 C86.8826 B90.4649
X1.1226 Y.1608 Z-.0025 C87.0987 B91.0597
X1.123 Y.1664 Z-.02 C87.2162 B91.7462
Y.1723 Z-.0389 C87.2047 B92.5029
X1.1225 Y.1784 Z-.0574 C87.0561 B93.244
X1.1214 Y.185 Z-.0764 C86.7625 B93.9849
X1.1198 Y.1916 Z-.0941 C86.3586 B94.6405
X1.1187 Y.1953 Z-.1035 C86.0912 B94.9699
X1.1185 Y.1958 Z-.1048 C86.0503 B95.
X1.1161 Y.2033 Z-.1222 C85.4132
X1.1133 Y.2106 Z-.1388 C84.6746
X1.1104 Y.217 Z-.1532 C83.9263
X1.1075 Y.2226 Z-.1664 C83.147
X1.1046 Y.2271 Z-.1784 C82.3649
X1.102 Y.2305 Z-.1889 C81.6052
X1.1028 Y.2258 Z-.2025 C81.0494
X1.104 Y.2208 Z-.2147 C80.6033
X1.1051 Y.216 Z-.2269 C80.1513
X1.1062 Y.2114 Z-.2392 C79.6936
X1.1072 Y.2066 Z-.2525 C79.1987
X1.1073 Y.2067 Z-.2658 C78.4295
X1.1074 Y.2069 Z-.2792 C77.6593
Y.2071 Z-.2927 C76.8884
Y.2074 Z-.3062 C76.1171
X1.1075 Y.2077 Z-.3199 C75.3456
Y.2081 Z-.3336 C74.5743
Y.2084 Z-.3474 C73.8033
Y.2088 Z-.3613 C73.0331
Y.2093 Z-.3753 C72.2639
Y.2097 Z-.3894 C71.496
Y.2101 Z-.4035 C70.7297
Y.2105 Z-.4177 C69.9653
Y.2109 Z-.432 C69.2031
Y.2112 Z-.4464 C68.4433
Y.2116 Z-.4608 C67.6863
Y.2119 Z-.4753 C66.9324
Y.2121 Z-.4899 C66.1817
Y.2123 Z-.5046 C65.4345
Y.2125 Z-.5193 C64.6905
Y.2126 Z-.5341 C63.9496
Y.2127 Z-.5489 C63.2116
X1.1076 Y.2128 Z-.5638 C62.4762
Z-.5788 C61.7432
X1.1077 Z-.5938 C61.0125
Y.2127 Z-.6089 C60.2838
X1.1078 Z-.624 C59.5569
Y.2126 Z-.6392 C58.8316
X1.1079 Y.2125 Z-.6545 C58.1076
Y.2124 Z-.6697 C57.3848
X1.108 Y.2123 Z-.685 C56.6625
Y.2122 Z-.7004 C55.9407
Y.2121 Z-.7158 C55.2191
X1.1081 Y.212 Z-.7312 C54.4973
Y.2119 Z-.7467 C53.7751
X1.1082 Y.2118 Z-.7622 C53.0524
Y.2116 Z-.7777 C52.3332
Y.2115 Z-.7933 C51.6128
X1.1083 Y.2114 Z-.8089 C50.8913
Y.2113 Z-.8245 C50.1687
Z-.8401 C49.4465
Y.2112 Z-.8437 C49.2824
Y.2123 Z-.8561 C48.7344 B94.9997
X1.1082 Y.2147 Z-.8696 C48.1951 B94.999
X1.108 Y.2188 Z-.884 C47.656 B94.9978
X1.1075 Y.2248 Z-.8991 C47.1171 B94.9962
X1.1067 Y.2328 Z-.9146 C46.5787 B94.9941
X1.1054 Y.2426 Z-.9304 C46.0408 B94.9916
X1.1037 Y.2545 Z-.9461 C45.5035 B94.9887
X1.1015 Y.2682 Z-.9616 C44.9668 B94.9854
X1.0986 Y.2837 Z-.9764 C44.4309 B94.9816
X1.0951 Y.301 Z-.9906 C43.8959 B94.9774
X1.0909 Y.32 Z-1.0037 C43.3618 B94.9727
X1.0861 Y.3403 Z-1.0156 C42.8288 B94.9677
X1.0838 Y.3492 Z-1.0201 C42.6073 B94.9654
X1.582 Z-1.0634
X1.5526 Y.2622 Z-.8672 C56.138 B94.9615
X1.0544 Z-.824 F10.
X1.0532 Y.2612 Z-.8198 C55.9107 B94.9639
X1.0504 Y.2582 Z-.811 C55.3636 B94.9694
X1.0479 Y.2541 Z-.804 C54.8154 B94.9745
X1.0456 Y.2492 Z-.7987 C54.2662 B94.9791
X1.0437 Y.2438 Z-.7954 C53.7159 B94.9832
X1.0422 Y.2381 Z-.7941 C53.1648 B94.9869
X1.041 Y.2324 Z-.7947 C52.6129 B94.9902
X1.04 Y.2269 Z-.7973 C52.0604 B94.993
X1.0394 Y.2219 Z-.8019 C51.5073 B94.9953
X1.039 Y.2176 Z-.8084 C50.9537 B94.9972
X1.0388 Y.2142 Z-.8166 C50.3997 B94.9986
X1.0387 Y.2121 Z-.8264 C49.8455 B94.9995
X1.0386 Y.2112 Z-.8376 C49.2824 B95. F30.
Z-.8496 C48.724
Z-.8653 C48.0012
X1.0387 Y.2111 Z-.881 C47.2782
Z-.8967 C46.5548
Y.211 Z-.9124 C45.8313
Z-.9281 C45.1074
Z-.9439 C44.3833
Y.2109 Z-.9597 C43.6589
Z-.9755 C42.9341
Y.2108 Z-.9913 C42.2091
Y.2107 Z-1.0072 C41.4836
Y.2106 Z-1.023 C40.761
X1.0388 Y.2104 Z-1.0389 C40.0372
Y.2103 Z-1.0548 C39.312
Y.2102 Z-1.0707 C38.5852
Y.21 Z-1.0866 C37.8565
Y.2099 Z-1.1026 C37.1258
Y.2098 Z-1.1185 C36.3928
Z-1.1344 C35.6573
Y.2097 Z-1.1504 C34.919
X1.0387 Z-1.1663 C34.1778
Y.2096 Z-1.1822 C33.4336
Z-1.1981 C32.6875
X1.0386 Z-1.2141 C31.9398
Z-1.2299 C31.1906
Z-1.2458 C30.4399
Z-1.2617 C29.688
X1.0385 Z-1.2775 C28.9348
Z-1.2933 C28.1806
Y.2095 Z-1.3091 C27.4254
X1.0384 Z-1.3249 C26.6694
Y.2094 Z-1.3407 C25.9126
Y.2093 Z-1.3564 C25.1551
Y.2092 Z-1.3721 C24.3971
Y.209 Z-1.3879 C23.6386
X1.0383 Y.2088 Z-1.4035 C22.8796
Y.2086 Z-1.4192 C22.1202
Y.2083 Z-1.4348 C21.3605
X1.0399 Y.2001 Z-1.4505 C21.0417
X1.0414 Y.1923 Z-1.4652 C20.7423 B94.6983
X1.0428 Y.1844 Z-1.4798 C20.4453 B94.2229
X1.0441 Y.1763 Z-1.4944 C20.1509 B93.7464
X1.0454 Y.1682 Z-1.509 C19.8593 B93.2687
X1.0451 Y.1558 Z-1.5201 C19.9208 B93.2373
X1.0445 Y.142 Z-1.5303 C19.975 B93.2607
X1.0439 Y.1271 Z-1.5393 C20.0019 B93.3375
X1.0434 Y.1129 Z-1.5463 C19.9854 B93.4507
X1.043 Y.0986 Z-1.5519 C19.9141 B93.5932
X1.0426 Y.0848 Z-1.5557 C19.7769 B93.7491
X1.0424 Y.0718 Z-1.5577 C19.5679 B93.899
Y.0599 Z-1.5579 C19.2877 B94.0216
X1.0426 Y.0494 Z-1.5561 C18.9435 B94.0964
X1.0431 Y.0396 Z-1.5522 C18.5169 B94.1036
X1.0438 Y.0314 Z-1.5463 C18.0548 B94.0201
X1.0447 Y.0246 Z-1.5388 C17.5834 B93.8394
X1.0455 Y.0185 Z-1.5291 C17.0977 B93.5402
X1.0462 Y.0133 Z-1.5182 C16.6591 B93.1438
X1.0486 Y-.013 Z-1.5012 C17.1006 B92.6245
X1.0504 Y-.036 Z-1.4863 C17.4873 B92.17
X1.051 Y-.0393 Z-1.4841 C17.5421 B92.1045
X1.0522 Y-.0459 Z-1.471 C17.2135 B91.6509
X1.0533 Y-.0519 Z-1.4567 C16.9565 B91.1206
X1.0544 Y-.0578 Z-1.4408 C16.7803 B90.4943
X1.0551 Y-.0635 Z-1.4245 C16.7159 B89.8373
X1.0556 Y-.0696 Z-1.4073 C16.77 B89.1327
X1.0558 Y-.076 Z-1.3894 C16.9578 B88.4097
X1.0556 Y-.0829 Z-1.3711 C17.2854 B87.702
X1.0551 Y-.0895 Z-1.3543 C17.7109 B87.0893
X1.0543 Y-.0962 Z-1.3378 C18.2412 B86.5464
X1.0532 Y-.1027 Z-1.3221 C18.8579 B86.0948
X1.0519 Y-.1089 Z-1.3072 C19.5376 B85.7499
X1.0505 Y-.1144 Z-1.2935 C20.2544 B85.5198
X1.049 Y-.1193 Z-1.2801 C21.0384 B85.4012
X1.0478 Y-.1223 Z-1.2707 C21.6457 B85.3983
X1.0479 Y-.1175 Z-1.2548 C22.1889 B85.6755
X1.0484 Y-.1128 Z-1.2388 C22.7368 B85.9509
X1.049 Y-.1082 Z-1.2228 C23.2872 B86.2245
X1.0494 Y-.1037 Z-1.2067 C23.8402 B86.4964
X1.0495 Y-.1036 Z-1.1906 C24.6339 B86.4999
Y-.1035 Z-1.1744 C25.4278 B86.5015
Y-.1034 Z-1.1581 C26.2218 B86.5014
X1.0496 Z-1.1419 C27.0158 B86.4998
X1.0495 Z-1.1335 C27.4229 B86.4984
X1.0496 Z-1.1251 C27.8295 B86.4967
Z-1.1168 C28.2364 B86.4947
Z-1.1084 C28.6429 B86.4923
Z-1.1 C29.0496 B86.4897
Z-1.0916 C29.4559 B86.4868
Z-1.0831 C29.8624 B86.4837
Y-.1035 Z-1.0747 C30.2684 B86.4803
Z-1.0663 C30.6746 B86.4769
Z-1.0578 C31.0803 B86.4732
Y-.1036 Z-1.0494 C31.4861 B86.4695
Z-1.0409 C31.8915 B86.4655
Z-1.0324 C32.2968 B86.4616
Y-.1037 Z-1.024 C32.7017 B86.4573
Z-1.0155 C33.1066 B86.4533
X1.0497 Z-1.007 C33.5111 B86.449
X1.0496 Y-.1038 Z-.9984 C33.9154 B86.445
X1.0497 Z-.9899 C34.3193 B86.4406
X1.0496 Y-.1039 Z-.9814 C34.723 B86.4367
X1.0497 Z-.9729 C35.1262 B86.4324
X1.0496 Z-.9643 C35.5293 B86.4286
X1.0497 Y-.104 Z-.9558 C35.9319 B86.4245
Z-.9472 C36.3342 B86.4211
Z-.9386 C36.7361 B86.4174
Z-.93 C37.1372 B86.4149
Z-.9214 C37.538 B86.4121
Z-.9042 C38.3376 B86.4086
Y-.1039 Z-.887 C39.1354 B86.4065
Z-.8697 C39.9315 B86.4058
Y-.1038 Z-.8524 C40.7263 B86.4062
Y-.1036 Z-.835 C41.5201 B86.4076
X1.0498 Y-.1035 Z-.8177 C42.3107 B86.4125
Y-.1033 Z-.8003 C43.1024 B86.4164
Y-.1032 Z-.7829 C43.895 B86.4193
Y-.103 Z-.7655 C44.6886 B86.4214
Y-.1029 Z-.7481 C45.483 B86.4231
Y-.1028 Z-.7307 C46.2783 B86.4246
Y-.1026 Z-.7132 C47.0744 B86.426
Y-.1025 Z-.6958 C47.8712 B86.4276
Y-.1024 Z-.6783 C48.6687 B86.4296
Y-.1022 Z-.6609 C49.4691
Z-.6521 C49.8704 B86.429
Z-.6434 C50.2718 B86.4284
Y-.1021 Z-.6347 C50.6744 B86.427
Z-.626 C51.0771 B86.4258
Z-.6172 C51.4812 B86.4236
Z-.6085 C51.8853 B86.4216
X1.0497 Z-.5998 C52.2897 B86.4191
X1.0498 Z-.5911 C52.6941 B86.4167
X1.0497 Y-.102 Z-.5824 C53.0978 B86.4152
Z-.5737 C53.5015 B86.4138
Z-.565 C53.9049 B86.4132
Y-.1019 Z-.5563 C54.3083 B86.4127
Z-.5476 C54.7115 B86.4129
Y-.1018 Z-.5389 C55.1148 B86.4132
Y-.1017 Z-.5302 C55.5179 B86.4141
Z-.5216 C55.9212 B86.4151
Y-.1016 Z-.5129 C56.3244 B86.4165
Y-.1015 Z-.5042 C56.7279 B86.4181
Y-.1014 Z-.4955 C57.1315 B86.42
Y-.1013 Z-.4868 C57.5352 B86.422
Y-.1012 Z-.4781 C57.9393 B86.4242
Y-.1011 Z-.4695 C58.3437 B86.4265
Y-.101 Z-.4608 C58.7484 B86.4288
Y-.1009 Z-.4521 C59.1534 B86.4314
Y-.1008 Z-.4435 C59.559 B86.4338
Y-.1007 Z-.4348 C59.9649 B86.4364
Y-.1006 Z-.4262 C60.3716 B86.4387
Y-.1005 Z-.4175 C60.7785 B86.4414
Y-.1004 Z-.4089 C61.1864 B86.4435
Y-.1003 Z-.4003 C61.5945 B86.4459
X1.0496 Y-.1002 Z-.3917 C62.0038 B86.4478
X1.0497 Y-.1001 Z-.383 C62.4134 B86.4499
X1.0496 Y-.1 Z-.3744 C62.8243 B86.4513
Y-.0999 Z-.3658 C63.2355 B86.4531
Y-.0998 Z-.3572 C63.6481 B86.4539
Z-.3486 C64.061 B86.4552
Y-.0997 Z-.3401 C64.4756 B86.4553
Y-.0996 Z-.3315 C64.8906 B86.4559
Z-.3229 C65.3072 B86.4553
Y-.0995 Z-.3144 C65.7244 B86.4551
X1.0495 Z-.3058 C66.1434 B86.4536
X1.0496 Z-.2973 C66.5628 B86.4525
X1.0495 Y-.0994 Z-.2888 C66.9843 B86.4499
Z-.2802 C67.4063 B86.4479
Z-.2717 C67.8305 B86.4441
Y-.0995 Z-.2632 C68.2552 B86.441
X1.0494 Z-.2547 C68.6821 B86.436
Z-.2463 C69.1097 B86.4317
Y-.0996 Z-.2378 C69.5392 B86.4261
Z-.2294 C69.9693 B86.4211
X1.0493 Y-.0997 Z-.2209 C70.4011 B86.4149
Z-.2125 C70.8335 B86.4093
Y-.0998 Z-.2041 C71.2675 B86.4028
Y-.0999 Z-.1957 C71.7021 B86.397
X1.0492 Y-.1 Z-.1873 C72.1379 B86.3903
Y-.1001 Z-.179 C72.5745 B86.3844
X1.0491 Z-.1706 C73.0122 B86.3778
Y-.1002 Z-.1623 C73.4506 B86.372
Y-.1003 Z-.154 C73.8898 B86.3656
Y-.1004 Z-.1457 C74.3298 B86.3601
X1.049 Y-.1005 Z-.1374 C74.7705 B86.3542
Z-.1291 C75.212 B86.3491
Y-.1006 Z-.1209 C75.6539 B86.3438
Z-.1127 C76.0967 B86.3395
X1.0489 Y-.1007 Z-.1044 C76.5397 B86.335
Z-.0962 C76.9835 B86.3316
X1.0488 Z-.0881 C77.4274 B86.3282
Y-.1008 Z-.0799 C77.8721 B86.3258
Y-.1007 Z-.0717 C78.3167 B86.3236
Z-.0636 C78.7621 B86.3225
X1.0487 Z-.0555 C79.2072 B86.3217
Y-.1006 Z-.0474 C79.6532 B86.3221
Y-.1005 Z-.0395 C80.0862 B86.323
Z-.0317 C80.5202 B86.3249
X1.0486 Y-.1003 Z-.0239 C80.9533 B86.3275
Y-.1002 Z-.016 C81.3874 B86.3311
Y-.1 Z-.0083 C81.8206 B86.3356
Y-.0999 Z-.0005 C82.2547 B86.3412
Y-.0996 Z.0073 C82.6876 B86.3478
Y-.0994 Z.015 C83.1215 B86.3556
X1.0495 Y-.0881 Z.0303 C83.3932 B86.9365
X1.0504 Y-.0765 Z.0455 C83.6556 B87.5178
X1.0511 Y-.0646 Z.0606 C83.908 B88.0993
X1.0517 Y-.0525 Z.0757 C84.1499 B88.6811
X1.0513 Y-.039 Z.0858 C84.0844 B88.6772
X1.0506 Y-.0244 Z.0948 C84.0373 B88.6189
X1.0496 Y-.0091 Z.1025 C84.0281 B88.5111
X1.0486 Y.0052 Z.1082 C84.0703 B88.3752
X1.0478 Y.0193 Z.1123 C84.1748 B88.2185
X1.0471 Y.0327 Z.1146 C84.3506 B88.059
X1.0466 Y.0451 Z.1151 C84.6008 B87.9178
Y.0561 Z.1137 C84.9216 B87.8166
X1.0469 Y.0657 Z.1104 C85.3022 B87.7758
X1.0477 Y.0745 Z.1048 C85.7599 B87.8176
X1.0488 Y.0818 Z.0974 C86.2414 B87.9605
X1.0501 Y.0881 Z.0877 C86.7518 B88.2293
X1.0514 Y.0934 Z.0766 C87.2239 B88.6103
X1.0523 Y.0977 Z.0653 C87.6057 B89.0522
X1.0517 Y.1237 Z.0467 C87.0927 B89.4971
X1.0507 Y.1497 Z.0281 C86.5786 B89.9432
X1.0518 Y.1554 Z.0139 C86.8826 B90.4649
X1.0526 Y.1608 Z-.0012 C87.0988 B91.0597
X1.0531 Y.1664 Z-.0179 C87.2162 B91.7462
Y.1723 Z-.0359 C87.2047 B92.5029
X1.0526 Y.1784 Z-.0535 C87.0561 B93.244
X1.0515 Y.185 Z-.0716 C86.7625 B93.9849
X1.05 Y.1916 Z-.0884 C86.3586 B94.6405
X1.049 Y.1953 Z-.0975 C86.0912 B94.9699
X1.0488 Y.1958 Z-.0987 C86.0503 B95.
X1.0464 Y.2033 Z-.1161 C85.4132
X1.0435 Y.2106 Z-.1327 C84.6746
X1.0407 Y.217 Z-.1471 C83.9263
X1.0377 Y.2226 Z-.1603 C83.147
X1.0349 Y.2271 Z-.1723 C82.3649
X1.0322 Y.2305 Z-.1828 C81.6052
X1.033 Y.2258 Z-.1964 C81.0494
X1.0342 Y.2208 Z-.2086 C80.6033
X1.0353 Y.216 Z-.2208 C80.1513
X1.0364 Y.2114 Z-.2331 C79.6936
X1.0375 Y.2066 Z-.2464 C79.1987
X1.0376 Y.2067 Z-.2597 C78.4295
Y.2069 Z-.2731 C77.6594
X1.0377 Y.2071 Z-.2866 C76.8884
Y.2074 Z-.3001 C76.1171
Y.2077 Z-.3138 C75.3456
X1.0378 Y.2081 Z-.3275 C74.5743
Y.2084 Z-.3413 C73.8033
Y.2088 Z-.3552 C73.0331
Y.2093 Z-.3692 C72.2639
Y.2097 Z-.3833 C71.496
X1.0377 Y.2101 Z-.3974 C70.7297
Y.2105 Z-.4116 C69.9653
Y.2109 Z-.4259 C69.2031
Y.2112 Z-.4403 C68.4433
Y.2116 Z-.4547 C67.6863
Y.2119 Z-.4692 C66.9324
Y.2121 Z-.4838 C66.1817
Y.2123 Z-.4985 C65.4345
X1.0378 Y.2125 Z-.5132 C64.6905
Y.2126 Z-.528 C63.9496
Y.2127 Z-.5428 C63.2116
Y.2128 Z-.5577 C62.4762
X1.0379 Z-.5727 C61.7432
Z-.5877 C61.0125
X1.038 Y.2127 Z-.6028 C60.2838
Z-.6179 C59.5569
X1.0381 Y.2126 Z-.6331 C58.8316
Y.2125 Z-.6484 C58.1076
X1.0382 Y.2124 Z-.6636 C57.3848
Y.2123 Z-.6789 C56.6626
X1.0383 Y.2122 Z-.6943 C55.9407
Y.2121 Z-.7097 C55.2191
Y.212 Z-.7251 C54.4973
X1.0384 Y.2119 Z-.7406 C53.7751
Y.2118 Z-.7561 C53.0524
X1.0385 Y.2116 Z-.7716 C52.3332
Y.2115 Z-.7872 C51.6128
Y.2114 Z-.8028 C50.8913
X1.0386 Y.2113 Z-.8184 C50.1687
Z-.834 C49.4465
Y.2112 Z-.8376 C49.2824
Y.2123 Z-.8503 C48.7192 B94.9997
X1.0385 Y.2148 Z-.864 C48.1649 B94.9989
X1.0383 Y.219 Z-.8786 C47.6108 B94.9977
X1.0378 Y.2251 Z-.8938 C47.0571 B94.996
X1.0369 Y.2332 Z-.9095 C46.5038 B94.9938
X1.0356 Y.2432 Z-.9252 C45.951 B94.9912
X1.0339 Y.2551 Z-.9409 C45.3988 B94.9881
X1.0316 Y.2689 Z-.9562 C44.8474 B94.9846
X1.0287 Y.2846 Z-.9709 C44.2969 B94.9806
X1.0251 Y.302 Z-.9848 C43.7472 B94.9761
X1.0208 Y.3209 Z-.9976 C43.1987 B94.9712
X1.0158 Y.3412 Z-1.0092 C42.6512 B94.9659
X1.0135 Y.3501 Z-1.0136 C42.4237 B94.9636
X1.5116 Z-1.0569 B94.9635
X1.484 Y.2668 Z-.8552 C56.3239 B94.9595
X.9858 Z-.812 F10.
X.9845 Y.2655 Z-.808 C56.0906 B94.962
X.9815 Y.2617 Z-.7997 C55.529 B94.9678
X.9788 Y.257 Z-.7931 C54.9661 B94.9731
X.9764 Y.2516 Z-.7884 C54.402 B94.978
X.9744 Y.2456 Z-.7856 C53.8369 B94.9824
X.9727 Y.2395 Z-.7847 C53.2709 B94.9863
X.9714 Y.2334 Z-.7859 C52.704 B94.9897
X.9704 Y.2276 Z-.7891 C52.1364 B94.9926
X.9697 Y.2223 Z-.7941 C51.5682 B94.9951
X.9693 Y.2178 Z-.8011 C50.9995 B94.997
X.969 Y.2143 Z-.8097 C50.4303 B94.9985
X.9689 Y.2121 Z-.8199 C49.8609 B94.9995
Y.2112 Z-.8315 C49.2824 B95. F30.
Z-.8435 C48.724
Z-.8592 C48.0012
Y.2111 Z-.8749 C47.2782
Z-.8906 C46.5548
Y.211 Z-.9063 C45.8313
X.969 Z-.922 C45.1074
Z-.9378 C44.3833
Y.2109 Z-.9536 C43.6589
Z-.9694 C42.9341
Y.2108 Z-.9852 C42.2091
Y.2107 Z-1.0011 C41.4836
Y.2106 Z-1.0169 C40.761
Y.2104 Z-1.0328 C40.0372
Y.2103 Z-1.0487 C39.312
Y.2102 Z-1.0646 C38.5852
X.9691 Y.21 Z-1.0805 C37.8565
Y.2099 Z-1.0965 C37.1258
Y.2098 Z-1.1124 C36.3928
X.969 Z-1.1283 C35.6573
Y.2097 Z-1.1443 C34.919
Z-1.1602 C34.1778
Y.2096 Z-1.1761 C33.4336
X.9689 Z-1.192 C32.6875
Z-1.208 C31.9398
Z-1.2238 C31.1906
Z-1.2397 C30.4399
X.9688 Z-1.2556 C29.688
Z-1.2714 C28.9348
Z-1.2872 C28.1806
X.9687 Y.2095 Z-1.303 C27.4254
Z-1.3188 C26.6694
Y.2094 Z-1.3346 C25.9126
Y.2093 Z-1.3503 C25.1551
X.9686 Y.2092 Z-1.366 C24.3971
Y.209 Z-1.3817 C23.6386
Y.2088 Z-1.3974 C22.8796
Y.2086 Z-1.4131 C22.1202
Y.2083 Z-1.4287 C21.3605
X.9702 Y.2001 Z-1.4444 C21.0417
X.9716 Y.1923 Z-1.4594 C20.7423 B94.6983
X.973 Y.1844 Z-1.4746 C20.4453 B94.2229
X.9743 Y.1763 Z-1.4898 C20.1509 B93.7464
X.9756 Y.1682 Z-1.505 C19.8593 B93.2687
X.9752 Y.1558 Z-1.5161 C19.9208 B93.2373
X.9746 Y.142 Z-1.5263 C19.975 B93.2607
X.9741 Y.1271 Z-1.5352 C20.0019 B93.3375
X.9736 Y.1129 Z-1.5421 C19.9854 B93.4507
X.9731 Y.0986 Z-1.5475 C19.9141 B93.5932
X.9728 Y.0848 Z-1.5511 C19.7769 B93.7491
X.9726 Y.0718 Z-1.553 C19.5679 B93.899
Y.0599 Z-1.5529 C19.2877 B94.0216
X.9728 Y.0494 Z-1.5511 C18.9435 B94.0964
X.9733 Y.0396 Z-1.5472 C18.5169 B94.1036
X.974 Y.0314 Z-1.5414 C18.0548 B94.0201
X.9748 Y.0246 Z-1.5341 C17.5834 B93.8394
X.9756 Y.0185 Z-1.5248 C17.0977 B93.5402
X.9763 Y.0133 Z-1.5144 C16.6591 B93.1438
X.9787 Y-.013 Z-1.498 C17.1006 B92.6245
X.9804 Y-.036 Z-1.4836 C17.4873 B92.17
X.981 Y-.0393 Z-1.4815 C17.5421 B92.1045
X.9822 Y-.0459 Z-1.4689 C17.2135 B91.6509
X.9834 Y-.0519 Z-1.4554 C16.9565 B91.1206
X.9844 Y-.0578 Z-1.4402 C16.7803 B90.4943
X.9851 Y-.0635 Z-1.4247 C16.7159 B89.8373
X.9856 Y-.0696 Z-1.4084 C16.77 B89.1327
X.9858 Y-.076 Z-1.3913 C16.9578 B88.4097
X.9857 Y-.0829 Z-1.374 C17.2854 B87.702
X.9852 Y-.0895 Z-1.3579 C17.7109 B87.0893
X.9844 Y-.0962 Z-1.3421 C18.2412 B86.5464
X.9833 Y-.1027 Z-1.3268 C18.8579 B86.0948
X.9821 Y-.1089 Z-1.3124 C19.5376 B85.7499
X.9807 Y-.1144 Z-1.299 C20.2544 B85.5198
X.9792 Y-.1193 Z-1.2858 C21.0384 B85.4012
X.978 Y-.1223 Z-1.2763 C21.6457 B85.3983
X.9781 Y-.1175 Z-1.2601 C22.1889 B85.6755
X.9786 Y-.1128 Z-1.2438 C22.7368 B85.9509
X.9791 Y-.1082 Z-1.2274 C23.2872 B86.2245
X.9796 Y-.1037 Z-1.211 C23.8402 B86.4964
Y-.1036 Z-1.1949 C24.6339 B86.4999
Y-.1035 Z-1.1787 C25.4278 B86.5015
X.9797 Y-.1034 Z-1.1624 C26.2218 B86.5014
Z-1.1461 C27.0158 B86.4998
Z-1.1378 C27.4229 B86.4984
Z-1.1294 C27.8295 B86.4967
Z-1.121 C28.2364 B86.4947
Z-1.1127 C28.6429 B86.4923
Z-1.1043 C29.0496 B86.4897
Z-1.0959 C29.4559 B86.4868
Z-1.0874 C29.8624 B86.4837
X.9798 Y-.1035 Z-1.079 C30.2684 B86.4803
X.9797 Z-1.0706 C30.6746 B86.4769
X.9798 Z-1.0621 C31.0803 B86.4732
X.9797 Y-.1036 Z-1.0537 C31.4861 B86.4695
X.9798 Z-1.0452 C31.8915 B86.4655
Z-1.0368 C32.2968 B86.4616
Y-.1037 Z-1.0283 C32.7017 B86.4573
Z-1.0198 C33.1066 B86.4533
Z-1.0113 C33.5111 B86.449
Y-.1038 Z-1.0028 C33.9154 B86.445
Z-.9943 C34.3193 B86.4406
Y-.1039 Z-.9857 C34.723 B86.4367
Z-.9772 C35.1262 B86.4324
Z-.9687 C35.5293 B86.4286
Y-.104 Z-.9601 C35.9319 B86.4245
Z-.9516 C36.3342 B86.4211
Z-.943 C36.7361 B86.4174
Z-.9344 C37.1372 B86.4149
Z-.9258 C37.538 B86.4121
Z-.9086 C38.3376 B86.4085
Y-.1039 Z-.8913 C39.1354 B86.4065
X.9799 Z-.8741 C39.9315 B86.4058
Y-.1038 Z-.8568 C40.7263 B86.4062
Y-.1036 Z-.8394 C41.5201 B86.4075
Y-.1035 Z-.8221 C42.3107 B86.4125
Y-.1033 Z-.8047 C43.1024 B86.4164
Y-.1032 Z-.7873 C43.895 B86.4193
Y-.103 Z-.7699 C44.6886 B86.4214
Y-.1029 Z-.7525 C45.483 B86.4231
Y-.1028 Z-.735 C46.2783 B86.4246
Y-.1026 Z-.7176 C47.0744 B86.426
Y-.1025 Z-.7001 C47.8712 B86.4276
X.98 Y-.1024 Z-.6827 C48.6687 B86.4296
X.9799 Y-.1022 Z-.6652 C49.4691
Z-.6565 C49.8704 B86.429
Z-.6478 C50.2718 B86.4284
Y-.1021 Z-.639 C50.6744 B86.427
Z-.6303 C51.0771 B86.4258
Z-.6216 C51.4812 B86.4236
Z-.6129 C51.8853 B86.4216
Z-.6042 C52.2897 B86.4191
Z-.5955 C52.6941 B86.4167
Y-.102 Z-.5868 C53.0978 B86.4152
Z-.5781 C53.5015 B86.4138
Z-.5694 C53.9049 B86.4132
Y-.1019 Z-.5607 C54.3083 B86.4127
X.9798 Z-.552 C54.7115 B86.4129
X.9799 Y-.1018 Z-.5433 C55.1148 B86.4132
X.9798 Y-.1017 Z-.5346 C55.5179 B86.4141
X.9799 Z-.5259 C55.9212 B86.4151
X.9798 Y-.1016 Z-.5172 C56.3244 B86.4165
X.9799 Y-.1015 Z-.5086 C56.7279 B86.4181
X.9798 Y-.1014 Z-.4999 C57.1315 B86.42
X.9799 Y-.1013 Z-.4912 C57.5352 B86.422
X.9798 Y-.1012 Z-.4825 C57.9393 B86.4242
Y-.1011 Z-.4738 C58.3437 B86.4265
Y-.101 Z-.4652 C58.7484 B86.4288
Y-.1009 Z-.4565 C59.1534 B86.4314
Y-.1008 Z-.4478 C59.559 B86.4338
Y-.1007 Z-.4392 C59.9649 B86.4364
Y-.1006 Z-.4305 C60.3716 B86.4387
Y-.1005 Z-.4219 C60.7785 B86.4414
Y-.1004 Z-.4133 C61.1864 B86.4435
Y-.1003 Z-.4046 C61.5945 B86.4459
Y-.1002 Z-.396 C62.0038 B86.4478
Y-.1001 Z-.3874 C62.4134 B86.4499
Y-.1 Z-.3788 C62.8243 B86.4513
Y-.0999 Z-.3702 C63.2355 B86.4531
X.9797 Y-.0998 Z-.3616 C63.6481 B86.4539
X.9798 Z-.353 C64.061 B86.4552
X.9797 Y-.0997 Z-.3444 C64.4756 B86.4553
Y-.0996 Z-.3358 C64.8906 B86.4559
Z-.3272 C65.3072 B86.4553
Y-.0995 Z-.3187 C65.7244 B86.4551
Z-.3101 C66.1434 B86.4536
Z-.3016 C66.5628 B86.4525
X.9796 Y-.0994 Z-.2931 C66.9843 B86.4499
Z-.2846 C67.4063 B86.4479
Z-.2761 C67.8305 B86.4441
Y-.0995 Z-.2676 C68.2552 B86.441
Z-.2591 C68.6821 B86.436
Z-.2506 C69.1097 B86.4318
X.9795 Y-.0996 Z-.2422 C69.5392 B86.4261
Z-.2337 C69.9693 B86.4211
Y-.0997 Z-.2253 C70.4011 B86.4149
Z-.2169 C70.8335 B86.4093
X.9794 Y-.0998 Z-.2085 C71.2675 B86.4028
Y-.0999 Z-.2001 C71.7021 B86.397
X.9793 Y-.1 Z-.1918 C72.1379 B86.3903
Y-.1001 Z-.1834 C72.5745 B86.3844
Z-.1751 C73.0122 B86.3778
Y-.1002 Z-.1667 C73.4506 B86.372
X.9792 Y-.1003 Z-.1584 C73.8898 B86.3656
Y-.1004 Z-.1501 C74.3298 B86.3601
Y-.1005 Z-.1419 C74.7705 B86.3542
Z-.1336 C75.212 B86.3491
X.9791 Y-.1006 Z-.1254 C75.6539 B86.3438
Z-.1171 C76.0967 B86.3395
X.979 Y-.1007 Z-.1089 C76.5397 B86.335
Z-.1007 C76.9835 B86.3316
Z-.0925 C77.4274 B86.3282
Y-.1008 Z-.0844 C77.8721 B86.3258
X.9789 Y-.1007 Z-.0762 C78.3167 B86.3236
Z-.0681 C78.7621 B86.3225
Z-.06 C79.2072 B86.3217
Y-.1006 Z-.0519 C79.6532 B86.3221
X.9788 Y-.1005 Z-.044 C80.0862 B86.323
Z-.0362 C80.5202 B86.3249
Y-.1003 Z-.0283 C80.9533 B86.3275
Y-.1002 Z-.0205 C81.3874 B86.3311
X.9787 Y-.1 Z-.0127 C81.8206 B86.3356
X.9788 Y-.0999 Z-.0049 C82.2547 B86.3412
X.9787 Y-.0996 Z.0028 C82.6876 B86.3478
Y-.0994 Z.0106 C83.1215 B86.3556
X.9796 Y-.0881 Z.0265 C83.3932 B86.9365
X.9805 Y-.0765 Z.0425 C83.6556 B87.5178
X.9812 Y-.0646 Z.0583 C83.908 B88.0993
X.9817 Y-.0525 Z.0741 C84.1499 B88.6811
X.9813 Y-.039 Z.0841 C84.0844 B88.6772
X.9806 Y-.0244 Z.0931 C84.0373 B88.6189
X.9796 Y-.0091 Z.1007 C84.0281 B88.5111
X.9787 Y.0052 Z.1062 C84.0703 B88.3752
X.9778 Y.0193 Z.1101 C84.1748 B88.2185
X.9771 Y.0327 Z.1123 C84.3506 B88.059
X.9767 Y.0451 Z.1126 C84.6008 B87.9178
X.9766 Y.0561 Z.111 C84.9216 B87.8166
X.977 Y.0657 Z.1076 C85.3022 B87.7758
X.9777 Y.0745 Z.1021 C85.7599 B87.8176
X.9788 Y.0818 Z.0949 C86.2414 B87.9605
X.9802 Y.0881 Z.0856 C86.7518 B88.2293
X.9814 Y.0934 Z.0749 C87.2239 B88.6103
X.9823 Y.0977 Z.0641 C87.6057 B89.0522
X.9817 Y.1237 Z.0461 C87.0927 B89.4971
X.9807 Y.1497 Z.028 C86.5786 B89.9432
X.9818 Y.1554 Z.0144 C86.8826 B90.4649
X.9826 Y.1608 Z0. C87.0987 B91.0597
X.9831 Y.1664 Z-.0158 C87.2162 B91.7462
X.9832 Y.1723 Z-.0328 C87.2047 B92.5029
X.9827 Y.1784 Z-.0495 C87.0561 B93.244
X.9817 Y.185 Z-.0667 C86.7625 B93.9849
X.9802 Y.1916 Z-.0828 C86.3586 B94.6405
X.9792 Y.1953 Z-.0914 C86.0912 B94.9699
X.9791 Y.1958 Z-.0926 C86.0503 B95.
X.9766 Y.2033 Z-.11 C85.4132
X.9738 Y.2106 Z-.1266 C84.6746
X.9709 Y.217 Z-.141 C83.9263
X.968 Y.2226 Z-.1542 C83.147
X.9652 Y.2271 Z-.1662 C82.3649
X.9625 Y.2305 Z-.1767 C81.6052
X.9633 Y.2258 Z-.1903 C81.0494
X.9645 Y.2208 Z-.2025 C80.6033
X.9656 Y.216 Z-.2147 C80.1513
X.9667 Y.2114 Z-.227 C79.6936
X.9678 Y.2066 Z-.2403 C79.1987
Y.2067 Z-.2536 C78.4295
X.9679 Y.2069 Z-.267 C77.6593
Y.2071 Z-.2805 C76.8884
X.968 Y.2074 Z-.294 C76.1171
Y.2077 Z-.3077 C75.3456
Y.2081 Z-.3214 C74.5743
Y.2084 Z-.3352 C73.8033
Y.2088 Z-.3491 C73.0331
Y.2093 Z-.3631 C72.2639
Y.2097 Z-.3772 C71.496
Y.2101 Z-.3913 C70.7297
Y.2105 Z-.4055 C69.9653
Y.2109 Z-.4198 C69.2031
Y.2112 Z-.4342 C68.4433
Y.2116 Z-.4486 C67.6863
Y.2119 Z-.4631 C66.9324
Y.2121 Z-.4777 C66.1817
Y.2123 Z-.4924 C65.4345
Y.2125 Z-.5071 C64.6905
X.9681 Y.2126 Z-.5219 C63.9496
Y.2127 Z-.5367 C63.2116
Y.2128 Z-.5516 C62.4762
X.9682 Z-.5666 C61.7432
Z-.5816 C61.0125
Y.2127 Z-.5967 C60.2838
X.9683 Z-.6118 C59.5569
Y.2126 Z-.627 C58.8316
X.9684 Y.2125 Z-.6422 C58.1076
Y.2124 Z-.6575 C57.3848
X.9685 Y.2123 Z-.6728 C56.6626
Y.2122 Z-.6882 C55.9407
X.9686 Y.2121 Z-.7036 C55.2191
Y.212 Z-.719 C54.4973
X.9687 Y.2119 Z-.7345 C53.7751
Y.2118 Z-.75 C53.0524
Y.2116 Z-.7655 C52.3332
X.9688 Y.2115 Z-.7811 C51.6128
Y.2114 Z-.7967 C50.8913
Y.2113 Z-.8123 C50.1687
X.9689 Z-.8279 C49.4465
Y.2112 Z-.8315 C49.2824
X.9688 Y.2124 Z-.8445 C48.7037 B94.9997
Y.2149 Z-.8585 C48.1343 B94.9989
X.9685 Y.2192 Z-.8732 C47.565 B94.9976
X.968 Y.2254 Z-.8886 C46.9961 B94.9958
X.9672 Y.2336 Z-.9043 C46.4277 B94.9935
X.9659 Y.2437 Z-.92 C45.8599 B94.9907
X.9641 Y.2557 Z-.9356 C45.2927 B94.9874
X.9617 Y.2697 Z-.9508 C44.7264 B94.9837
X.9587 Y.2854 Z-.9653 C44.1609 B94.9795
X.955 Y.3028 Z-.9789 C43.5965 B94.9748
X.9506 Y.3218 Z-.9914 C43.0332 B94.9697
X.9455 Y.3421 Z-1.0026 C42.4711 B94.964
X.9431 Y.3509 Z-1.0068 C42.2375 B94.9616
X1.4413 Z-1.0501
X1.4154 Y.2715 Z-.8429 C56.5113 B94.9574
X.9173 Z-.7997 F10.
X.9158 Y.27 Z-.796 C56.2719 B94.9601
X.9126 Y.2655 Z-.7881 C55.6956 B94.9662
X.9097 Y.2601 Z-.782 C55.1179 B94.9718
X.9072 Y.254 Z-.7778 C54.539 B94.9769
X.905 Y.2475 Z-.7756 C53.9589 B94.9815
X.9032 Y.2409 Z-.7753 C53.3778 B94.9856
X.9018 Y.2344 Z-.777 C52.7958 B94.9892
X.9008 Y.2283 Z-.7807 C52.2131 B94.9923
X.9 Y.2227 Z-.7863 C51.6296 B94.9948
X.8996 Y.2181 Z-.7937 C51.0456 B94.9969
X.8993 Y.2145 Z-.8028 C50.4612 B94.9985
X.8992 Y.2121 Z-.8135 C49.8765 B94.9995
X.8991 Y.2112 Z-.8254 C49.2824 B95. F30.
Z-.8374 C48.724
X.8992 Z-.8531 C48.0012
Y.2111 Z-.8688 C47.2782
Z-.8845 C46.5548
Y.211 Z-.9002 C45.8313
Z-.9159 C45.1074
Z-.9317 C44.3833
Y.2109 Z-.9475 C43.6589
Z-.9633 C42.9341
X.8993 Y.2108 Z-.9791 C42.2091
Y.2107 Z-.995 C41.4836
Y.2106 Z-1.0108 C40.761
Y.2104 Z-1.0267 C40.0372
Y.2103 Z-1.0426 C39.312
Y.2102 Z-1.0585 C38.5852
Y.21 Z-1.0744 C37.8565
Y.2099 Z-1.0904 C37.1258
Y.2098 Z-1.1063 C36.3928
Z-1.1222 C35.6573
Y.2097 Z-1.1382 C34.919
Z-1.1541 C34.1778
X.8992 Y.2096 Z-1.17 C33.4336
Z-1.1859 C32.6875
Z-1.2019 C31.9398
Z-1.2177 C31.1906
X.8991 Z-1.2336 C30.4399
Z-1.2495 C29.688
Z-1.2653 C28.9348
X.899 Z-1.2811 C28.1806
Y.2095 Z-1.2969 C27.4254
Z-1.3127 C26.6694
X.8989 Y.2094 Z-1.3285 C25.9126
Y.2093 Z-1.3442 C25.1551
Y.2092 Z-1.3599 C24.3971
Y.209 Z-1.3756 C23.6386
Y.2088 Z-1.3913 C22.8796
Y.2086 Z-1.407 C22.1202
Y.2083 Z-1.4226 C21.3605
X.9004 Y.2001 Z-1.4383 C21.0417
X.9018 Y.1923 Z-1.4537 C20.7423 B94.6983
X.9031 Y.1844 Z-1.4695 C20.4453 B94.2229
X.9044 Y.1763 Z-1.4852 C20.1509 B93.7464
X.9057 Y.1682 Z-1.501 C19.8593 B93.2687
X.9053 Y.1558 Z-1.5122 C19.9208 B93.2373
X.9047 Y.142 Z-1.5223 C19.975 B93.2607
X.9042 Y.1271 Z-1.5311 C20.0019 B93.3375
X.9037 Y.1129 Z-1.5379 C19.9854 B93.4507
X.9032 Y.0986 Z-1.5431 C19.9141 B93.5932
X.9029 Y.0848 Z-1.5466 C19.7769 B93.7491
X.9027 Y.0718 Z-1.5482 C19.5679 B93.899
X.9028 Y.0599 Z-1.548 C19.2877 B94.0216
X.903 Y.0494 Z-1.5461 C18.9435 B94.0964
X.9035 Y.0396 Z-1.5421 C18.5169 B94.1036
X.9042 Y.0314 Z-1.5365 C18.0548 B94.0201
X.905 Y.0246 Z-1.5294 C17.5834 B93.8394
X.9058 Y.0185 Z-1.5205 C17.0977 B93.5402
X.9064 Y.0133 Z-1.5106 C16.6591 B93.1438
X.9088 Y-.013 Z-1.4948 C17.1006 B92.6245
X.9105 Y-.036 Z-1.481 C17.4873 B92.17
X.9111 Y-.0393 Z-1.479 C17.5421 B92.1045
X.9123 Y-.0459 Z-1.4669 C17.2135 B91.6509
X.9134 Y-.0519 Z-1.454 C16.9565 B91.1206
X.9144 Y-.0578 Z-1.4396 C16.7803 B90.4943
X.9151 Y-.0635 Z-1.4249 C16.7159 B89.8373
X.9157 Y-.0696 Z-1.4094 C16.77 B89.1327
X.9159 Y-.076 Z-1.3933 C16.9578 B88.4097
X.9157 Y-.0829 Z-1.3768 C17.2854 B87.702
X.9153 Y-.0895 Z-1.3614 C17.7109 B87.0893
X.9145 Y-.0962 Z-1.3463 C18.2412 B86.5464
X.9135 Y-.1027 Z-1.3316 C18.8579 B86.0948
X.9123 Y-.1089 Z-1.3176 C19.5376 B85.7499
X.9109 Y-.1144 Z-1.3044 C20.2544 B85.5198
X.9094 Y-.1193 Z-1.2914 C21.0384 B85.4012
X.9083 Y-.1223 Z-1.2819 C21.6457 B85.3983
Y-.1175 Z-1.2653 C22.1889 B85.6755
X.9088 Y-.1128 Z-1.2487 C22.7368 B85.9509
X.9093 Y-.1082 Z-1.232 C23.2872 B86.2245
X.9097 Y-.1037 Z-1.2153 C23.8402 B86.4964
Y-.1036 Z-1.1991 C24.6339 B86.4999
X.9098 Y-.1035 Z-1.1829 C25.4278 B86.5015
Y-.1034 Z-1.1667 C26.2218 B86.5014
Z-1.1504 C27.0158 B86.4998
Z-1.142 C27.4229 B86.4984
Z-1.1337 C27.8295 B86.4967
Z-1.1253 C28.2364 B86.4947
X.9099 Z-1.1169 C28.6429 B86.4923
X.9098 Z-1.1085 C29.0496 B86.4897
X.9099 Z-1.1001 C29.4559 B86.4868
Z-1.0917 C29.8624 B86.4837
Y-.1035 Z-1.0833 C30.2684 B86.4803
Z-1.0749 C30.6746 B86.4769
Z-1.0665 C31.0803 B86.4732
Y-.1036 Z-1.058 C31.4861 B86.4695
Z-1.0496 C31.8915 B86.4655
Z-1.0411 C32.2968 B86.4616
Y-.1037 Z-1.0326 C32.7017 B86.4573
Z-1.0241 C33.1066 B86.4533
Z-1.0156 C33.5111 B86.449
Y-.1038 Z-1.0071 C33.9154 B86.445
Z-.9986 C34.3193 B86.4406
Y-.1039 Z-.9901 C34.723 B86.4367
Z-.9816 C35.1262 B86.4324
Z-.973 C35.5293 B86.4286
Y-.104 Z-.9645 C35.9319 B86.4245
Z-.9559 C36.3342 B86.4211
X.91 Z-.9474 C36.7361 B86.4174
X.9099 Z-.9388 C37.1372 B86.4149
X.91 Z-.9302 C37.538 B86.4121
Z-.913 C38.3376 B86.4086
Y-.1039 Z-.8957 C39.1354 B86.4065
Z-.8784 C39.9315 B86.4058
Y-.1038 Z-.8611 C40.7263 B86.4062
Y-.1036 Z-.8438 C41.5201 B86.4075
Y-.1035 Z-.8264 C42.3107 B86.4125
Y-.1033 Z-.8091 C43.1024 B86.4164
X.9101 Y-.1032 Z-.7917 C43.895 B86.4193
Y-.103 Z-.7742 C44.6886 B86.4214
Y-.1029 Z-.7568 C45.483 B86.4231
Y-.1028 Z-.7394 C46.2783 B86.4246
Y-.1026 Z-.7219 C47.0744 B86.426
Y-.1025 Z-.7045 C47.8712 B86.4276
Y-.1024 Z-.687 C48.6687 B86.4296
Y-.1022 Z-.6696 C49.4691
Z-.6609 C49.8704 B86.4289
Z-.6521 C50.2718 B86.4284
X.91 Y-.1021 Z-.6434 C50.6744 B86.427
X.9101 Z-.6347 C51.0771 B86.4258
X.91 Z-.626 C51.4812 B86.4236
Z-.6173 C51.8853 B86.4216
Z-.6086 C52.2897 B86.4191
Z-.5999 C52.6941 B86.4167
Y-.102 Z-.5912 C53.0978 B86.4152
Z-.5825 C53.5015 B86.4138
Z-.5738 C53.9049 B86.4132
Y-.1019 Z-.5651 C54.3083 B86.4127
Z-.5564 C54.7115 B86.4129
Y-.1018 Z-.5477 C55.1148 B86.4132
Y-.1017 Z-.539 C55.5179 B86.4141
Z-.5303 C55.9212 B86.4151
Y-.1016 Z-.5216 C56.3244 B86.4165
Y-.1015 Z-.5129 C56.7279 B86.4181
Y-.1014 Z-.5042 C57.1315 B86.42
Y-.1013 Z-.4956 C57.5352 B86.422
Y-.1012 Z-.4869 C57.9394 B86.4242
Y-.1011 Z-.4782 C58.3436 B86.4265
Y-.101 Z-.4695 C58.7484 B86.4288
Y-.1009 Z-.4609 C59.1534 B86.4314
X.9099 Y-.1008 Z-.4522 C59.559 B86.4338
X.91 Y-.1007 Z-.4435 C59.9649 B86.4364
X.9099 Y-.1006 Z-.4349 C60.3716 B86.4387
X.91 Y-.1005 Z-.4262 C60.7785 B86.4414
X.9099 Y-.1004 Z-.4176 C61.1864 B86.4435
Y-.1003 Z-.409 C61.5945 B86.4459
Y-.1002 Z-.4003 C62.0038 B86.4478
Y-.1001 Z-.3917 C62.4134 B86.4499
Y-.1 Z-.3831 C62.8243 B86.4513
Y-.0999 Z-.3745 C63.2355 B86.4531
Y-.0998 Z-.3659 C63.6481 B86.4539
Z-.3573 C64.061 B86.4552
Y-.0997 Z-.3487 C64.4756 B86.4553
Y-.0996 Z-.3401 C64.8906 B86.4559
X.9098 Z-.3316 C65.3072 B86.4553
Y-.0995 Z-.323 C65.7244 B86.4551
Z-.3145 C66.1434 B86.4536
Z-.3059 C66.5628 B86.4525
Y-.0994 Z-.2974 C66.9843 B86.4499
Z-.2889 C67.4063 B86.4479
X.9097 Z-.2804 C67.8305 B86.4441
Y-.0995 Z-.2719 C68.2552 B86.441
Z-.2635 C68.6821 B86.436
Z-.255 C69.1097 B86.4317
X.9096 Y-.0996 Z-.2465 C69.5392 B86.4261
X.9097 Z-.2381 C69.9693 B86.4211
X.9096 Y-.0997 Z-.2297 C70.4011 B86.4149
Z-.2213 C70.8335 B86.4093
X.9095 Y-.0998 Z-.2129 C71.2675 B86.4028
Y-.0999 Z-.2045 C71.7021 B86.397
Y-.1 Z-.1962 C72.1379 B86.3903
Y-.1001 Z-.1878 C72.5745 B86.3844
X.9094 Z-.1795 C73.0122 B86.3778
Y-.1002 Z-.1712 C73.4506 B86.372
Y-.1003 Z-.1629 C73.8898 B86.3656
Y-.1004 Z-.1546 C74.3298 B86.3601
X.9093 Y-.1005 Z-.1463 C74.7705 B86.3542
Z-.1381 C75.212 B86.3491
X.9092 Y-.1006 Z-.1298 C75.6539 B86.3438
Z-.1216 C76.0967 B86.3395
Y-.1007 Z-.1134 C76.5397 B86.335
Z-.1052 C76.9835 B86.3316
X.9091 Z-.097 C77.4274 B86.3282
Y-.1008 Z-.0889 C77.8721 B86.3258
Y-.1007 Z-.0807 C78.3167 B86.3236
Z-.0726 C78.7621 B86.3225
X.909 Z-.0645 C79.2072 B86.3217
Y-.1006 Z-.0564 C79.6532 B86.3221
Y-.1005 Z-.0485 C80.0862 B86.323
Z-.0407 C80.5202 B86.3249
X.9089 Y-.1003 Z-.0328 C80.9533 B86.3275
Y-.1002 Z-.025 C81.3874 B86.3311
Y-.1 Z-.0172 C81.8206 B86.3356
Y-.0999 Z-.0094 C82.2547 B86.3412
X.9088 Y-.0996 Z-.0016 C82.6876 B86.3478
X.9089 Y-.0994 Z.0061 C83.1215 B86.3556
X.9097 Y-.0881 Z.0228 C83.3932 B86.9365
X.9105 Y-.0765 Z.0394 C83.6556 B87.5178
X.9112 Y-.0646 Z.056 C83.908 B88.0993
X.9118 Y-.0525 Z.0725 C84.1499 B88.6811
X.9114 Y-.039 Z.0825 C84.0844 B88.6772
X.9107 Y-.0244 Z.0914 C84.0373 B88.6189
X.9097 Y-.0091 Z.0988 C84.0281 B88.5111
X.9087 Y.0052 Z.1042 C84.0703 B88.3752
X.9078 Y.0193 Z.1079 C84.1748 B88.2185
X.9071 Y.0327 Z.1099 C84.3506 B88.059
X.9067 Y.0451 Z.11 C84.6008 B87.9178
Y.0561 Z.1083 C84.9216 B87.8166
X.907 Y.0657 Z.1049 C85.3022 B87.7758
X.9078 Y.0745 Z.0995 C85.7599 B87.8176
X.9088 Y.0818 Z.0924 C86.2414 B87.9605
X.9102 Y.0881 Z.0834 C86.7518 B88.2293
X.9114 Y.0934 Z.0732 C87.2239 B88.6103
X.9123 Y.0977 Z.063 C87.6057 B89.0522
X.9117 Y.1237 Z.0454 C87.0927 B89.4971
X.9107 Y.1497 Z.0279 C86.5786 B89.9432
X.9118 Y.1554 Z.015 C86.8826 B90.4649
X.9126 Y.1608 Z.0013 C87.0988 B91.0597
X.9131 Y.1664 Z-.0136 C87.2162 B91.7462
X.9132 Y.1723 Z-.0298 C87.2047 B92.5029
X.9128 Y.1784 Z-.0456 C87.0561 B93.244
X.9119 Y.185 Z-.0618 C86.7625 B93.9849
X.9105 Y.1916 Z-.0771 C86.3586 B94.6405
X.9095 Y.1953 Z-.0853 C86.0912 B94.9699
X.9093 Y.1958 Z-.0865 C86.0503 B95.
X.9069 Y.2033 Z-.1039 C85.4132
X.9041 Y.2106 Z-.1205 C84.6746
X.9012 Y.217 Z-.1349 C83.9263
X.8983 Y.2226 Z-.1481 C83.147
X.8954 Y.2271 Z-.16 C82.3649
X.8928 Y.2305 Z-.1706 C81.6052
X.8936 Y.2258 Z-.1842 C81.0494
X.8948 Y.2208 Z-.1964 C80.6033
X.8959 Y.216 Z-.2086 C80.1513
X.897 Y.2114 Z-.2209 C79.6936
X.898 Y.2066 Z-.2342 C79.1987
X.8981 Y.2067 Z-.2475 C78.4295
X.8982 Y.2069 Z-.2609 C77.6593
Y.2071 Z-.2744 C76.8884
Y.2074 Z-.2879 C76.1171
X.8983 Y.2077 Z-.3016 C75.3456
Y.2081 Z-.3153 C74.5743
Y.2084 Z-.3291 C73.8033
Y.2088 Z-.343 C73.0331
Y.2093 Z-.357 C72.2639
Y.2097 Z-.3711 C71.496
Y.2101 Z-.3852 C70.7297
Y.2105 Z-.3994 C69.9653
Y.2109 Z-.4137 C69.2031
Y.2112 Z-.4281 C68.4433
Y.2116 Z-.4425 C67.6863
Y.2119 Z-.457 C66.9324
Y.2121 Z-.4716 C66.1817
Y.2123 Z-.4863 C65.4345
Y.2125 Z-.501 C64.6905
Y.2126 Z-.5158 C63.9496
Y.2127 Z-.5306 C63.2116
X.8984 Y.2128 Z-.5455 C62.4762
Z-.5605 C61.7432
X.8985 Z-.5755 C61.0125
Y.2127 Z-.5906 C60.2838
X.8986 Z-.6057 C59.5569
Y.2126 Z-.6209 C58.8316
X.8987 Y.2125 Z-.6361 C58.1076
Y.2124 Z-.6514 C57.3848
X.8988 Y.2123 Z-.6667 C56.6626
Y.2122 Z-.6821 C55.9407
Y.2121 Z-.6975 C55.2191
X.8989 Y.212 Z-.7129 C54.4973
Y.2119 Z-.7284 C53.7751
X.899 Y.2118 Z-.7439 C53.0524
Y.2116 Z-.7594 C52.3332
Y.2115 Z-.775 C51.6128
X.8991 Y.2114 Z-.7906 C50.8913
Y.2113 Z-.8062 C50.1687
Z-.8218 C49.4465
Y.2112 Z-.8254 C49.2824
Y.2124 Z-.8387 C48.6882 B94.9997
X.899 Y.2149 Z-.8529 C48.1034 B94.9988
X.8988 Y.2193 Z-.8679 C47.5188 B94.9974
X.8983 Y.2257 Z-.8833 C46.9346 B94.9955
X.8974 Y.2339 Z-.899 C46.351 B94.9931
X.8961 Y.2442 Z-.9147 C45.768 B94.9902
X.8942 Y.2564 Z-.9302 C45.1857 B94.9868
X.8918 Y.2704 Z-.9452 C44.6042 B94.9828
X.8887 Y.2862 Z-.9595 C44.0238 B94.9784
X.8849 Y.3036 Z-.9728 C43.4445 B94.9735
X.8804 Y.3225 Z-.985 C42.8663 B94.968
X.8752 Y.3428 Z-.9958 C42.2895 B94.9621
X.8728 Y.3515 Z-.9998 C42.0499 B94.9595
X1.3709 Z-1.043
G0 X1.9373 Y.4968
M9
G49
G69.5
G28 U0. Y0.
G28 W0. M205
M01
M30

